Total time taken for discovery for machine
L: 5.165s
There are 52 machines in this topology. The following are the machines and their neighbors discovered from machine J:
A: [B]
A1: [B1,Z]
B: [A,C]
B1: [A1,C1]
C: [B,D]
C1: [B1,D1]
D: [C,E]
D1: [C1,E1]
E: [D,F]
E1: [D1,F1]
F: [E,G]
F1: [E1,G1]
G: [F,H]
G1: [F1,H1]
H: [G,I]
H1: [G1,I1]
I: [H,J]
I1: [H1,J1]
J: [I,K]
J1: [I1,K1]
K: [J,L]
K1: [J1,L1]
L: [K,M]
L1: [K1,M1]
M: [L,N]
M1: [L1,N1]
N: [M,O]
N1: [M1,O1]
O: [N,P]
O1: [N1,P1]
P: [O,Q]
P1: [O1,Q1]
Q: [P,R]
Q1: [P1,R1]
R: [Q,S]
R1: [Q1,S1]
S: [R,T]
S1: [R1,T1]
T: [S,U]
T1: [S1,U1]
U: [T,V]
U1: [T1,V1]
V: [U,W]
V1: [U1,W1]
W: [V,X]
W1: [V1,X1]
X: [W,Y]
X1: [W1,Y1]
Y: [X,Z]
Y1: [X1,Z1]
Z: [A1,Y]
Z1: [Y1]
Total time taken for discovery for machine
J: 5.195s
There are 52 machines in this topology. The following are the machines and their neighbors discovered from machine Y1:
A: [B]
A1: [B1,Z]
B: [A,C]
B1: [A1,C1]
C: [B,D]
C1: [B1,D1]
D: [C,E]
D1: [C1,E1]
E: [D,F]
E1: [D1,F1]
F: [E,G]
F1: [E1,G1]
G: [F,H]
G1: [F1,H1]
H: [G,I]
H1: [G1,I1]
I: [H,J]
I1: [H1,J1]
J: [I,K]
J1: [I1,K1]
K: [J,L]
K1: [J1,L1]
L: [K,M]
L1: [K1,M1]
M: [L,N]
M1: [L1,N1]
N: [M,O]
N1: [M1,O1]
O: [N,P]
O1: [N1,P1]
P: [O,Q]
P1: [O1,Q1]
Q: [P,R]
Q1: [P1,R1]
R: [Q,S]
R1: [Q1,S1]
S: [R,T]
S1: [R1,T1]
T: [S,U]
T1: [S1,U1]
U: [T,V]
U1: [T1,V1]
V: [U,W]
V1: [U1,W1]
W: [V,X]
W1: [V1,X1]
X: [W,Y]
X1: [W1,Y1]
Y: [X,Z]
Y1: [X1,Z1]
Z: [A1,Y]
Z1: [Y1]
Total time taken for discovery for machine
Y1: 5.214s
There are 52 machines in this topology. The following are the machines and their neighbors discovered from machine I1:
A: [B]
A1: [B1,Z]
B: [A,C]
B1: [A1,C1]
C: [B,D]
C1: [B1,D1]
D: [C,E]
D1: [C1,E1]
E: [D,F]
E1: [D1,F1]
F: [E,G]
F1: [E1,G1]
G: [F,H]
G1: [F1,H1]
H: [G,I]
H1: [G1,I1]
I: [H,J]
I1: [H1,J1]
J: [I,K]
J1: [I1,K1]
K: [J,L]
K1: [J1,L1]
L: [K,M]
L1: [K1,M1]
M: [L,N]
M1: [L1,N1]
N: [M,O]
N1: [M1,O1]
O: [N,P]
O1: [N1,P1]
P: [O,Q]
P1: [O1,Q1]
Q: [P,R]
Q1: [P1,R1]
R: [Q,S]
R1: [Q1,S1]
S: [R,T]
S1: [R1,T1]
T: [S,U]
T1: [S1,U1]
U: [T,V]
U1: [T1,V1]
V: [U,W]
V1: [U1,W1]
W: [V,X]
W1: [V1,X1]
X: [W,Y]
X1: [W1,Y1]
Y: [X,Z]
Y1: [X1,Z1]
Z: [A1,Y]
Z1: [Y1]
Total time taken for discovery for machine
I1: 5.235s
There are 52 machines in this topology. The following are the machines and their neighbors discovered from machine F1:
A: [B]
A1: [B1,Z]
B: [A,C]
B1: [A1,C1]
C: [B,D]
C1: [B1,D1]
D: [C,E]
D1: [C1,E1]
E: [D,F]
E1: [D1,F1]
F: [E,G]
F1: [E1,G1]
G: [F,H]
G1: [F1,H1]
H: [G,I]
H1: [G1,I1]
I: [H,J]
I1: [H1,J1]
J: [I,K]
J1: [I1,K1]
K: [J,L]
K1: [J1,L1]
L: [K,M]
L1: [K1,M1]
M: [L,N]
M1: [L1,N1]
N: [M,O]
N1: [M1,O1]
O: [N,P]
O1: [N1,P1]
P: [O,Q]
P1: [O1,Q1]
Q: [P,R]
Q1: [P1,R1]
R: [Q,S]
R1: [Q1,S1]
S: [R,T]
S1: [R1,T1]
T: [S,U]
T1: [S1,U1]
U: [T,V]
U1: [T1,V1]
V: [U,W]
V1: [U1,W1]
W: [V,X]
W1: [V1,X1]
X: [W,Y]
X1: [W1,Y1]
Y: [X,Z]
Y1: [X1,Z1]
Z: [A1,Y]
Z1: [Y1]
Total time taken for discovery for machine
F1: 5.261s
There are 52 machines in this topology. The following are the machines and their neighbors discovered from machine C1:
A: [B]
A1: [B1,Z]
B: [A,C]
B1: [A1,C1]
C: [B,D]
C1: [B1,D1]
D: [C,E]
D1: [C1,E1]
E: [D,F]
E1: [D1,F1]
F: [E,G]
F1: [E1,G1]
G: [F,H]
G1: [F1,H1]
H: [G,I]
H1: [G1,I1]
I: [H,J]
I1: [H1,J1]
J: [I,K]
J1: [I1,K1]
K: [J,L]
K1: [J1,L1]
L: [K,M]
L1: [K1,M1]
M: [L,N]
M1: [L1,N1]
N: [M,O]
N1: [M1,O1]
O: [N,P]
O1: [N1,P1]
P: [O,Q]
P1: [O1,Q1]
Q: [P,R]
Q1: [P1,R1]
R: [Q,S]
R1: [Q1,S1]
S: [R,T]
S1: [R1,T1]
T: [S,U]
T1: [S1,U1]
U: [T,V]
U1: [T1,V1]
V: [U,W]
V1: [U1,W1]
W: [V,X]
W1: [V1,X1]
X: [W,Y]
X1: [W1,Y1]
Y: [X,Z]
Y1: [X1,Z1]
Z: [A1,Y]
Z1: [Y1]
Total time taken for discovery for machine
C1: 5.279s
There are 52 machines in this topology. The following are the machines and their neighbors discovered from machine Z:
A: [B]
A1: [B1,Z]
B: [A,C]
B1: [A1,C1]
C: [B,D]
C1: [B1,D1]
D: [C,E]
D1: [C1,E1]
E: [D,F]
E1: [D1,F1]
F: [E,G]
F1: [E1,G1]
G: [F,H]
G1: [F1,H1]
H: [G,I]
H1: [G1,I1]
I: [H,J]
I1: [H1,J1]
J: [I,K]
J1: [I1,K1]
K: [J,L]
K1: [J1,L1]
L: [K,M]
L1: [K1,M1]
M: [L,N]
M1: [L1,N1]
N: [M,O]
N1: [M1,O1]
O: [N,P]
O1: [N1,P1]
P: [O,Q]
P1: [O1,Q1]
Q: [P,R]
Q1: [P1,R1]
R: [Q,S]
R1: [Q1,S1]
S: [R,T]
S1: [R1,T1]
T: [S,U]
T1: [S1,U1]
U: [T,V]
U1: [T1,V1]
V: [U,W]
V1: [U1,W1]
W: [V,X]
W1: [V1,X1]
X: [W,Y]
X1: [W1,Y1]
Y: [X,Z]
Y1: [X1,Z1]
Z: [A1,Y]
Z1: [Y1]
Total time taken for discovery for machine
Z: 5.303s
There are 52 machines in this topology. The following are the machines and their neighbors discovered from machine F:
A: [B]
A1: [B1,Z]
B: [A,C]
B1: [A1,C1]
C: [B,D]
C1: [B1,D1]
D: [C,E]
D1: [C1,E1]
E: [D,F]
E1: [D1,F1]
F: [E,G]
F1: [E1,G1]
G: [F,H]
G1: [F1,H1]
H: [G,I]
H1: [G1,I1]
I: [H,J]
I1: [H1,J1]
J: [I,K]
J1: [I1,K1]
K: [J,L]
K1: [J1,L1]
L: [K,M]
L1: [K1,M1]
M: [L,N]
M1: [L1,N1]
N: [M,O]
N1: [M1,O1]
O: [N,P]
O1: [N1,P1]
P: [O,Q]
P1: [O1,Q1]
Q: [P,R]
Q1: [P1,R1]
R: [Q,S]
R1: [Q1,S1]
S: [R,T]
S1: [R1,T1]
T: [S,U]
T1: [S1,U1]
U: [T,V]
U1: [T1,V1]
V: [U,W]
V1: [U1,W1]
W: [V,X]
W1: [V1,X1]
X: [W,Y]
X1: [W1,Y1]
Y: [X,Z]
Y1: [X1,Z1]
Z: [A1,Y]
Z1: [Y1]
Total time taken for discovery for machine
F: 5.322s
There are 52 machines in this topology. The following are the machines and their neighbors discovered from machine D:
A: [B]
A1: [B1,Z]
B: [A,C]
B1: [A1,C1]
C: [B,D]
C1: [B1,D1]
D: [C,E]
D1: [C1,E1]
E: [D,F]
E1: [D1,F1]
F: [E,G]
F1: [E1,G1]
G: [F,H]
G1: [F1,H1]
H: [G,I]
H1: [G1,I1]
I: [H,J]
I1: [H1,J1]
J: [I,K]
J1: [I1,K1]
K: [J,L]
K1: [J1,L1]
L: [K,M]
L1: [K1,M1]
M: [L,N]
M1: [L1,N1]
N: [M,O]
N1: [M1,O1]
O: [N,P]
O1: [N1,P1]
P: [O,Q]
P1: [O1,Q1]
Q: [P,R]
Q1: [P1,R1]
R: [Q,S]
R1: [Q1,S1]
S: [R,T]
S1: [R1,T1]
T: [S,U]
T1: [S1,U1]
U: [T,V]
U1: [T1,V1]
V: [U,W]
V1: [U1,W1]
W: [V,X]
W1: [V1,X1]
X: [W,Y]
X1: [W1,Y1]
Y: [X,Z]
Y1: [X1,Z1]
Z: [A1,Y]
Z1: [Y1]
Total time taken for discovery for machine
D: 5.336s
There are 52 machines in this topology. The following are the machines and their neighbors discovered from machine H1:
A: [B]
A1: [B1,Z]
B: [A,C]
B1: [A1,C1]
C: [B,D]
C1: [B1,D1]
D: [C,E]
D1: [C1,E1]
E: [D,F]
E1: [D1,F1]
F: [E,G]
F1: [E1,G1]
G: [F,H]
G1: [F1,H1]
H: [G,I]
H1: [G1,I1]
I: [H,J]
I1: [H1,J1]
J: [I,K]
J1: [I1,K1]
K: [J,L]
K1: [J1,L1]
L: [K,M]
L1: [K1,M1]
M: [L,N]
M1: [L1,N1]
N: [M,O]
N1: [M1,O1]
O: [N,P]
O1: [N1,P1]
P: [O,Q]
P1: [O1,Q1]
Q: [P,R]
Q1: [P1,R1]
R: [Q,S]
R1: [Q1,S1]
S: [R,T]
S1: [R1,T1]
T: [S,U]
T1: [S1,U1]
U: [T,V]
U1: [T1,V1]
V: [U,W]
V1: [U1,W1]
W: [V,X]
W1: [V1,X1]
X: [W,Y]
X1: [W1,Y1]
Y: [X,Z]
Y1: [X1,Z1]
Z: [A1,Y]
Z1: [Y1]
Total time taken for discovery for machine
H1: 5.363s
There are 52 machines in this topology. The following are the machines and their neighbors discovered from machine E1:
A: [B]
A1: [B1,Z]
B: [A,C]
B1: [A1,C1]
C: [B,D]
C1: [B1,D1]
D: [C,E]
D1: [C1,E1]
E: [D,F]
E1: [D1,F1]
F: [E,G]
F1: [E1,G1]
G: [F,H]
G1: [F1,H1]
H: [G,I]
H1: [G1,I1]
I: [H,J]
I1: [H1,J1]
J: [I,K]
J1: [I1,K1]
K: [J,L]
K1: [J1,L1]
L: [K,M]
L1: [K1,M1]
M: [L,N]
M1: [L1,N1]
N: [M,O]
N1: [M1,O1]
O: [N,P]
O1: [N1,P1]
P: [O,Q]
P1: [O1,Q1]
Q: [P,R]
Q1: [P1,R1]
R: [Q,S]
R1: [Q1,S1]
S: [R,T]
S1: [R1,T1]
T: [S,U]
T1: [S1,U1]
U: [T,V]
U1: [T1,V1]
V: [U,W]
V1: [U1,W1]
W: [V,X]
W1: [V1,X1]
X: [W,Y]
X1: [W1,Y1]
Y: [X,Z]
Y1: [X1,Z1]
Z: [A1,Y]
Z1: [Y1]
Total time taken for discovery for machine
E1: 5.380s
There are 52 machines in this topology. The following are the machines and their neighbors discovered from machine Z1:
A: [B]
A1: [B1,Z]
B: [A,C]
B1: [A1,C1]
C: [B,D]
C1: [B1,D1]
D: [C,E]
D1: [C1,E1]
E: [D,F]
E1: [D1,F1]
F: [E,G]
F1: [E1,G1]
G: [F,H]
G1: [F1,H1]
H: [G,I]
H1: [G1,I1]
I: [H,J]
I1: [H1,J1]
J: [I,K]
J1: [I1,K1]
K: [J,L]
K1: [J1,L1]
L: [K,M]
L1: [K1,M1]
M: [L,N]
M1: [L1,N1]
N: [M,O]
N1: [M1,O1]
O: [N,P]
O1: [N1,P1]
P: [O,Q]
P1: [O1,Q1]
Q: [P,R]
Q1: [P1,R1]
R: [Q,S]
R1: [Q1,S1]
S: [R,T]
S1: [R1,T1]
T: [S,U]
T1: [S1,U1]
U: [T,V]
U1: [T1,V1]
V: [U,W]
V1: [U1,W1]
W: [V,X]
W1: [V1,X1]
X: [W,Y]
X1: [W1,Y1]
Y: [X,Z]
Y1: [X1,Z1]
Z: [A1,Y]
Z1: [Y1]
Total time taken for discovery for machine
Z1: 5.407s
There are 52 machines in this topology. The following are the machines and their neighbors discovered from machine L1:
A: [B]
A1: [B1,Z]
B: [A,C]
B1: [A1,C1]
C: [B,D]
C1: [B1,D1]
D: [C,E]
D1: [C1,E1]
E: [D,F]
E1: [D1,F1]
F: [E,G]
F1: [E1,G1]
G: [F,H]
G1: [F1,H1]
H: [G,I]
H1: [G1,I1]
I: [H,J]
I1: [H1,J1]
J: [I,K]
J1: [I1,K1]
K: [J,L]
K1: [J1,L1]
L: [K,M]
L1: [K1,M1]
M: [L,N]
M1: [L1,N1]
N: [M,O]
N1: [M1,O1]
O: [N,P]
O1: [N1,P1]
P: [O,Q]
P1: [O1,Q1]
Q: [P,R]
Q1: [P1,R1]
R: [Q,S]
R1: [Q1,S1]
S: [R,T]
S1: [R1,T1]
T: [S,U]
T1: [S1,U1]
U: [T,V]
U1: [T1,V1]
V: [U,W]
V1: [U1,W1]
W: [V,X]
W1: [V1,X1]
X: [W,Y]
X1: [W1,Y1]
Y: [X,Z]
Y1: [X1,Z1]
Z: [A1,Y]
Z1: [Y1]
Total time taken for discovery for machine
L1: 5.442s
There are 52 machines in this topology. The following are the machines and their neighbors discovered from machine J1:
A: [B]
A1: [B1,Z]
B: [A,C]
B1: [A1,C1]
C: [B,D]
C1: [B1,D1]
D: [C,E]
D1: [C1,E1]
E: [D,F]
E1: [D1,F1]
F: [E,G]
F1: [E1,G1]
G: [F,H]
G1: [F1,H1]
H: [G,I]
H1: [G1,I1]
I: [H,J]
I1: [H1,J1]
J: [I,K]
J1: [I1,K1]
K: [J,L]
K1: [J1,L1]
L: [K,M]
L1: [K1,M1]
M: [L,N]
M1: [L1,N1]
N: [M,O]
N1: [M1,O1]
O: [N,P]
O1: [N1,P1]
P: [O,Q]
P1: [O1,Q1]
Q: [P,R]
Q1: [P1,R1]
R: [Q,S]
R1: [Q1,S1]
S: [R,T]
S1: [R1,T1]
T: [S,U]
T1: [S1,U1]
U: [T,V]
U1: [T1,V1]
V: [U,W]
V1: [U1,W1]
W: [V,X]
W1: [V1,X1]
X: [W,Y]
X1: [W1,Y1]
Y: [X,Z]
Y1: [X1,Z1]
Z: [A1,Y]
Z1: [Y1]
Total time taken for discovery for machine
J1: 5.459s
There are 52 machines in this topology. The following are the machines and their neighbors discovered from machine G1:
A: [B]
A1: [B1,Z]
B: [A,C]
B1: [A1,C1]
C: [B,D]
C1: [B1,D1]
D: [C,E]
D1: [C1,E1]
E: [D,F]
E1: [D1,F1]
F: [E,G]
F1: [E1,G1]
G: [F,H]
G1: [F1,H1]
H: [G,I]
H1: [G1,I1]
I: [H,J]
I1: [H1,J1]
J: [I,K]
J1: [I1,K1]
K: [J,L]
K1: [J1,L1]
L: [K,M]
L1: [K1,M1]
M: [L,N]
M1: [L1,N1]
N: [M,O]
N1: [M1,O1]
O: [N,P]
O1: [N1,P1]
P: [O,Q]
P1: [O1,Q1]
Q: [P,R]
Q1: [P1,R1]
R: [Q,S]
R1: [Q1,S1]
S: [R,T]
S1: [R1,T1]
T: [S,U]
T1: [S1,U1]
U: [T,V]
U1: [T1,V1]
V: [U,W]
V1: [U1,W1]
W: [V,X]
W1: [V1,X1]
X: [W,Y]
X1: [W1,Y1]
Y: [X,Z]
Y1: [X1,Z1]
Z: [A1,Y]
Z1: [Y1]
Total time taken for discovery for machine
G1: 5.487s
There are 52 machines in this topology. The following are the machines and their neighbors discovered from machine I:
A: [B]
A1: [B1,Z]
B: [A,C]
B1: [A1,C1]
C: [B,D]
C1: [B1,D1]
D: [C,E]
D1: [C1,E1]
E: [D,F]
E1: [D1,F1]
F: [E,G]
F1: [E1,G1]
G: [F,H]
G1: [F1,H1]
H: [G,I]
H1: [G1,I1]
I: [H,J]
I1: [H1,J1]
J: [I,K]
J1: [I1,K1]
K: [J,L]
K1: [J1,L1]
L: [K,M]
L1: [K1,M1]
M: [L,N]
M1: [L1,N1]
N: [M,O]
N1: [M1,O1]
O: [N,P]
O1: [N1,P1]
P: [O,Q]
P1: [O1,Q1]
Q: [P,R]
Q1: [P1,R1]
R: [Q,S]
R1: [Q1,S1]
S: [R,T]
S1: [R1,T1]
T: [S,U]
T1: [S1,U1]
U: [T,V]
U1: [T1,V1]
V: [U,W]
V1: [U1,W1]
W: [V,X]
W1: [V1,X1]
X: [W,Y]
X1: [W1,Y1]
Y: [X,Z]
Y1: [X1,Z1]
Z: [A1,Y]
Z1: [Y1]
Total time taken for discovery for machine
I: 5.505s
There are 52 machines in this topology. The following are the machines and their neighbors discovered from machine N1:
A: [B]
A1: [B1,Z]
B: [A,C]
B1: [A1,C1]
C: [B,D]
C1: [B1,D1]
D: [C,E]
D1: [C1,E1]
E: [D,F]
E1: [D1,F1]
F: [E,G]
F1: [E1,G1]
G: [F,H]
G1: [F1,H1]
H: [G,I]
H1: [G1,I1]
I: [H,J]
I1: [H1,J1]
J: [I,K]
J1: [I1,K1]
K: [J,L]
K1: [J1,L1]
L: [K,M]
L1: [K1,M1]
M: [L,N]
M1: [L1,N1]
N: [M,O]
N1: [M1,O1]
O: [N,P]
O1: [N1,P1]
P: [O,Q]
P1: [O1,Q1]
Q: [P,R]
Q1: [P1,R1]
R: [Q,S]
R1: [Q1,S1]
S: [R,T]
S1: [R1,T1]
T: [S,U]
T1: [S1,U1]
U: [T,V]
U1: [T1,V1]
V: [U,W]
V1: [U1,W1]
W: [V,X]
W1: [V1,X1]
X: [W,Y]
X1: [W1,Y1]
Y: [X,Z]
Y1: [X1,Z1]
Z: [A1,Y]
Z1: [Y1]
Total time taken for discovery for machine
N1: 5.536s
There are 52 machines in this topology. The following are the machines and their neighbors discovered from machine K1:
A: [B]
A1: [B1,Z]
B: [A,C]
B1: [A1,C1]
C: [B,D]
C1: [B1,D1]
D: [C,E]
D1: [C1,E1]
E: [D,F]
E1: [D1,F1]
F: [E,G]
F1: [E1,G1]
G: [F,H]
G1: [F1,H1]
H: [G,I]
H1: [G1,I1]
I: [H,J]
I1: [H1,J1]
J: [I,K]
J1: [I1,K1]
K: [J,L]
K1: [J1,L1]
L: [K,M]
L1: [K1,M1]
M: [L,N]
M1: [L1,N1]
N: [M,O]
N1: [M1,O1]
O: [N,P]
O1: [N1,P1]
P: [O,Q]
P1: [O1,Q1]
Q: [P,R]
Q1: [P1,R1]
R: [Q,S]
R1: [Q1,S1]
S: [R,T]
S1: [R1,T1]
T: [S,U]
T1: [S1,U1]
U: [T,V]
U1: [T1,V1]
V: [U,W]
V1: [U1,W1]
W: [V,X]
W1: [V1,X1]
X: [W,Y]
X1: [W1,Y1]
Y: [X,Z]
Y1: [X1,Z1]
Z: [A1,Y]
Z1: [Y1]
Total time taken for discovery for machine
K1: 5.564s
There are 52 machines in this topology. The following are the machines and their neighbors discovered from machine M1:
A: [B]
A1: [B1,Z]
B: [A,C]
B1: [A1,C1]
C: [B,D]
C1: [B1,D1]
D: [C,E]
D1: [C1,E1]
E: [D,F]
E1: [D1,F1]
F: [E,G]
F1: [E1,G1]
G: [F,H]
G1: [F1,H1]
H: [G,I]
H1: [G1,I1]
I: [H,J]
I1: [H1,J1]
J: [I,K]
J1: [I1,K1]
K: [J,L]
K1: [J1,L1]
L: [K,M]
L1: [K1,M1]
M: [L,N]
M1: [L1,N1]
N: [M,O]
N1: [M1,O1]
O: [N,P]
O1: [N1,P1]
P: [O,Q]
P1: [O1,Q1]
Q: [P,R]
Q1: [P1,R1]
R: [Q,S]
R1: [Q1,S1]
S: [R,T]
S1: [R1,T1]
T: [S,U]
T1: [S1,U1]
U: [T,V]
U1: [T1,V1]
V: [U,W]
V1: [U1,W1]
W: [V,X]
W1: [V1,X1]
X: [W,Y]
X1: [W1,Y1]
Y: [X,Z]
Y1: [X1,Z1]
Z: [A1,Y]
Z1: [Y1]
Total time taken for discovery for machine
M1: 5.581s
