There are 104 machines in this topology. The following are the machines and their neighbors discovered from machine D:
A: [B]
A1: [B1,Z]
A2: [B2,Z1]
A3: [B3,Z2]
B: [A,C]
B1: [A1,C1]
B2: [A2,C2]
B3: [A3,C3]
C: [B,D]
C1: [B1,D1]
C2: [B2,D2]
C3: [B3,D3]
D: [C,E]
D1: [C1,E1]
D2: [C2,E2]
D3: [C3,E3]
E: [D,F]
E1: [D1,F1]
E2: [D2,F2]
E3: [D3,F3]
F: [E,G]
F1: [E1,G1]
F2: [E2,G2]
F3: [E3,G3]
G: [F,H]
G1: [F1,H1]
G2: [F2,H2]
G3: [F3,H3]
H: [G,I]
H1: [G1,I1]
H2: [G2,I2]
H3: [G3,I3]
I: [H,J]
I1: [H1,J1]
I2: [H2,J2]
I3: [H3,J3]
J: [I,K]
J1: [I1,K1]
J2: [I2,K2]
J3: [I3,K3]
K: [J,L]
K1: [J1,L1]
K2: [J2,L2]
K3: [J3,L3]
L: [K,M]
L1: [K1,M1]
L2: [K2,M2]
L3: [K3,M3]
M: [L,N]
M1: [L1,N1]
M2: [L2,N2]
M3: [L3,N3]
N: [M,O]
N1: [M1,O1]
N2: [M2,O2]
N3: [M3,O3]
O: [N,P]
O1: [N1,P1]
O2: [N2,P2]
O3: [N3,P3]
P: [O,Q]
P1: [O1,Q1]
P2: [O2,Q2]
P3: [O3,Q3]
Q: [P,R]
Q1: [P1,R1]
Q2: [P2,R2]
Q3: [P3,R3]
R: [Q,S]
R1: [Q1,S1]
R2: [Q2,S2]
R3: [Q3,S3]
S: [R,T]
S1: [R1,T1]
S2: [R2,T2]
S3: [R3,T3]
T: [S,U]
T1: [S1,U1]
T2: [S2,U2]
T3: [S3,U3]
U: [T,V]
U1: [T1,V1]
U2: [T2,V2]
U3: [T3,V3]
V: [U,W]
V1: [U1,W1]
V2: [U2,W2]
V3: [U3,W3]
W: [V,X]
W1: [V1,X1]
W2: [V2,X2]
W3: [V3,X3]
X: [W,Y]
X1: [W1,Y1]
X2: [W2,Y2]
X3: [W3,Y3]
Y: [X,Z]
Y1: [X1,Z1]
Y2: [X2,Z2]
Y3: [X3,Z3]
Z: [A1,Y]
Z1: [A2,Y1]
Z2: [A3,Y2]
Z3: [Y3]
Total time taken for discovery for machine
D: 4.186s
There are 104 machines in this topology. The following are the machines and their neighbors discovered from machine A:
A: [B]
A1: [B1,Z]
A2: [B2,Z1]
A3: [B3,Z2]
B: [A,C]
B1: [A1,C1]
B2: [A2,C2]
B3: [A3,C3]
C: [B,D]
C1: [B1,D1]
C2: [B2,D2]
C3: [B3,D3]
D: [C,E]
D1: [C1,E1]
D2: [C2,E2]
D3: [C3,E3]
E: [D,F]
E1: [D1,F1]
E2: [D2,F2]
E3: [D3,F3]
F: [E,G]
F1: [E1,G1]
F2: [E2,G2]
F3: [E3,G3]
G: [F,H]
G1: [F1,H1]
G2: [F2,H2]
G3: [F3,H3]
H: [G,I]
H1: [G1,I1]
H2: [G2,I2]
H3: [G3,I3]
I: [H,J]
I1: [H1,J1]
I2: [H2,J2]
I3: [H3,J3]
J: [I,K]
J1: [I1,K1]
J2: [I2,K2]
J3: [I3,K3]
K: [J,L]
K1: [J1,L1]
K2: [J2,L2]
K3: [J3,L3]
L: [K,M]
L1: [K1,M1]
L2: [K2,M2]
L3: [K3,M3]
M: [L,N]
M1: [L1,N1]
M2: [L2,N2]
M3: [L3,N3]
N: [M,O]
N1: [M1,O1]
N2: [M2,O2]
N3: [M3,O3]
O: [N,P]
O1: [N1,P1]
O2: [N2,P2]
O3: [N3,P3]
P: [O,Q]
P1: [O1,Q1]
P2: [O2,Q2]
P3: [O3,Q3]
Q: [P,R]
Q1: [P1,R1]
Q2: [P2,R2]
Q3: [P3,R3]
R: [Q,S]
R1: [Q1,S1]
R2: [Q2,S2]
R3: [Q3,S3]
S: [R,T]
S1: [R1,T1]
S2: [R2,T2]
S3: [R3,T3]
T: [S,U]
T1: [S1,U1]
T2: [S2,U2]
T3: [S3,U3]
U: [T,V]
U1: [T1,V1]
U2: [T2,V2]
U3: [T3,V3]
V: [U,W]
V1: [U1,W1]
V2: [U2,W2]
V3: [U3,W3]
W: [V,X]
W1: [V1,X1]
W2: [V2,X2]
W3: [V3,X3]
X: [W,Y]
X1: [W1,Y1]
X2: [W2,Y2]
X3: [W3,Y3]
Y: [X,Z]
Y1: [X1,Z1]
Y2: [X2,Z2]
Y3: [X3,Z3]
Z: [A1,Y]
Z1: [A2,Y1]
Z2: [A3,Y2]
Z3: [Y3]
Total time taken for discovery for machine
A: 4.106s
There are 104 machines in this topology. The following are the machines and their neighbors discovered from machine C:
A: [B]
A1: [B1,Z]
A2: [B2,Z1]
A3: [B3,Z2]
B: [A,C]
B1: [A1,C1]
B2: [A2,C2]
B3: [A3,C3]
C: [B,D]
C1: [B1,D1]
C2: [B2,D2]
C3: [B3,D3]
D: [C,E]
D1: [C1,E1]
D2: [C2,E2]
D3: [C3,E3]
E: [D,F]
E1: [D1,F1]
E2: [D2,F2]
E3: [D3,F3]
F: [E,G]
F1: [E1,G1]
F2: [E2,G2]
F3: [E3,G3]
G: [F,H]
G1: [F1,H1]
G2: [F2,H2]
G3: [F3,H3]
H: [G,I]
H1: [G1,I1]
H2: [G2,I2]
H3: [G3,I3]
I: [H,J]
I1: [H1,J1]
I2: [H2,J2]
I3: [H3,J3]
J: [I,K]
J1: [I1,K1]
J2: [I2,K2]
J3: [I3,K3]
K: [J,L]
K1: [J1,L1]
K2: [J2,L2]
K3: [J3,L3]
L: [K,M]
L1: [K1,M1]
L2: [K2,M2]
L3: [K3,M3]
M: [L,N]
M1: [L1,N1]
M2: [L2,N2]
M3: [L3,N3]
N: [M,O]
N1: [M1,O1]
N2: [M2,O2]
N3: [M3,O3]
O: [N,P]
O1: [N1,P1]
O2: [N2,P2]
O3: [N3,P3]
P: [O,Q]
P1: [O1,Q1]
P2: [O2,Q2]
P3: [O3,Q3]
Q: [P,R]
Q1: [P1,R1]
Q2: [P2,R2]
Q3: [P3,R3]
R: [Q,S]
R1: [Q1,S1]
R2: [Q2,S2]
R3: [Q3,S3]
S: [R,T]
S1: [R1,T1]
S2: [R2,T2]
S3: [R3,T3]
T: [S,U]
T1: [S1,U1]
T2: [S2,U2]
T3: [S3,U3]
U: [T,V]
U1: [T1,V1]
U2: [T2,V2]
U3: [T3,V3]
V: [U,W]
V1: [U1,W1]
V2: [U2,W2]
V3: [U3,W3]
W: [V,X]
W1: [V1,X1]
W2: [V2,X2]
W3: [V3,X3]
X: [W,Y]
X1: [W1,Y1]
X2: [W2,Y2]
X3: [W3,Y3]
Y: [X,Z]
Y1: [X1,Z1]
Y2: [X2,Z2]
Y3: [X3,Z3]
Z: [A1,Y]
Z1: [A2,Y1]
Z2: [A3,Y2]
Z3: [Y3]
Total time taken for discovery for machine
C: 4.027s
There are 104 machines in this topology. The following are the machines and their neighbors discovered from machine B:
A: [B]
A1: [B1,Z]
A2: [B2,Z1]
A3: [B3,Z2]
B: [A,C]
B1: [A1,C1]
B2: [A2,C2]
B3: [A3,C3]
C: [B,D]
C1: [B1,D1]
C2: [B2,D2]
C3: [B3,D3]
D: [C,E]
D1: [C1,E1]
D2: [C2,E2]
D3: [C3,E3]
E: [D,F]
E1: [D1,F1]
E2: [D2,F2]
E3: [D3,F3]
F: [E,G]
F1: [E1,G1]
F2: [E2,G2]
F3: [E3,G3]
G: [F,H]
G1: [F1,H1]
G2: [F2,H2]
G3: [F3,H3]
H: [G,I]
H1: [G1,I1]
H2: [G2,I2]
H3: [G3,I3]
I: [H,J]
I1: [H1,J1]
I2: [H2,J2]
I3: [H3,J3]
J: [I,K]
J1: [I1,K1]
J2: [I2,K2]
J3: [I3,K3]
K: [J,L]
K1: [J1,L1]
K2: [J2,L2]
K3: [J3,L3]
L: [K,M]
L1: [K1,M1]
L2: [K2,M2]
L3: [K3,M3]
M: [L,N]
M1: [L1,N1]
M2: [L2,N2]
M3: [L3,N3]
N: [M,O]
N1: [M1,O1]
N2: [M2,O2]
N3: [M3,O3]
O: [N,P]
O1: [N1,P1]
O2: [N2,P2]
O3: [N3,P3]
P: [O,Q]
P1: [O1,Q1]
P2: [O2,Q2]
P3: [O3,Q3]
Q: [P,R]
Q1: [P1,R1]
Q2: [P2,R2]
Q3: [P3,R3]
R: [Q,S]
R1: [Q1,S1]
R2: [Q2,S2]
R3: [Q3,S3]
S: [R,T]
S1: [R1,T1]
S2: [R2,T2]
S3: [R3,T3]
T: [S,U]
T1: [S1,U1]
T2: [S2,U2]
T3: [S3,U3]
U: [T,V]
U1: [T1,V1]
U2: [T2,V2]
U3: [T3,V3]
V: [U,W]
V1: [U1,W1]
V2: [U2,W2]
V3: [U3,W3]
W: [V,X]
W1: [V1,X1]
W2: [V2,X2]
W3: [V3,X3]
X: [W,Y]
X1: [W1,Y1]
X2: [W2,Y2]
X3: [W3,Y3]
Y: [X,Z]
Y1: [X1,Z1]
Y2: [X2,Z2]
Y3: [X3,Z3]
Z: [A1,Y]
Z1: [A2,Y1]
Z2: [A3,Y2]
Z3: [Y3]
Total time taken for discovery for machine
B: 4.069s
There are 104 machines in this topology. The following are the machines and their neighbors discovered from machine E:
A: [B]
A1: [B1,Z]
A2: [B2,Z1]
A3: [B3,Z2]
B: [A,C]
B1: [A1,C1]
B2: [A2,C2]
B3: [A3,C3]
C: [B,D]
C1: [B1,D1]
C2: [B2,D2]
C3: [B3,D3]
D: [C,E]
D1: [C1,E1]
D2: [C2,E2]
D3: [C3,E3]
E: [D,F]
E1: [D1,F1]
E2: [D2,F2]
E3: [D3,F3]
F: [E,G]
F1: [E1,G1]
F2: [E2,G2]
F3: [E3,G3]
G: [F,H]
G1: [F1,H1]
G2: [F2,H2]
G3: [F3,H3]
H: [G,I]
H1: [G1,I1]
H2: [G2,I2]
H3: [G3,I3]
I: [H,J]
I1: [H1,J1]
I2: [H2,J2]
I3: [H3,J3]
J: [I,K]
J1: [I1,K1]
J2: [I2,K2]
J3: [I3,K3]
K: [J,L]
K1: [J1,L1]
K2: [J2,L2]
K3: [J3,L3]
L: [K,M]
L1: [K1,M1]
L2: [K2,M2]
L3: [K3,M3]
M: [L,N]
M1: [L1,N1]
M2: [L2,N2]
M3: [L3,N3]
N: [M,O]
N1: [M1,O1]
N2: [M2,O2]
N3: [M3,O3]
O: [N,P]
O1: [N1,P1]
O2: [N2,P2]
O3: [N3,P3]
P: [O,Q]
P1: [O1,Q1]
P2: [O2,Q2]
P3: [O3,Q3]
Q: [P,R]
Q1: [P1,R1]
Q2: [P2,R2]
Q3: [P3,R3]
R: [Q,S]
R1: [Q1,S1]
R2: [Q2,S2]
R3: [Q3,S3]
S: [R,T]
S1: [R1,T1]
S2: [R2,T2]
S3: [R3,T3]
T: [S,U]
T1: [S1,U1]
T2: [S2,U2]
T3: [S3,U3]
U: [T,V]
U1: [T1,V1]
U2: [T2,V2]
U3: [T3,V3]
V: [U,W]
V1: [U1,W1]
V2: [U2,W2]
V3: [U3,W3]
W: [V,X]
W1: [V1,X1]
W2: [V2,X2]
W3: [V3,X3]
X: [W,Y]
X1: [W1,Y1]
X2: [W2,Y2]
X3: [W3,Y3]
Y: [X,Z]
Y1: [X1,Z1]
Y2: [X2,Z2]
Y3: [X3,Z3]
Z: [A1,Y]
Z1: [A2,Y1]
Z2: [A3,Y2]
Z3: [Y3]
Total time taken for discovery for machine
E: 4.114s
There are 104 machines in this topology. The following are the machines and their neighbors discovered from machine H:
A: [B]
A1: [B1,Z]
A2: [B2,Z1]
A3: [B3,Z2]
B: [A,C]
B1: [A1,C1]
B2: [A2,C2]
B3: [A3,C3]
C: [B,D]
C1: [B1,D1]
C2: [B2,D2]
C3: [B3,D3]
D: [C,E]
D1: [C1,E1]
D2: [C2,E2]
D3: [C3,E3]
E: [D,F]
E1: [D1,F1]
E2: [D2,F2]
E3: [D3,F3]
F: [E,G]
F1: [E1,G1]
F2: [E2,G2]
F3: [E3,G3]
G: [F,H]
G1: [F1,H1]
G2: [F2,H2]
G3: [F3,H3]
H: [G,I]
H1: [G1,I1]
H2: [G2,I2]
H3: [G3,I3]
I: [H,J]
I1: [H1,J1]
I2: [H2,J2]
I3: [H3,J3]
J: [I,K]
J1: [I1,K1]
J2: [I2,K2]
J3: [I3,K3]
K: [J,L]
K1: [J1,L1]
K2: [J2,L2]
K3: [J3,L3]
L: [K,M]
L1: [K1,M1]
L2: [K2,M2]
L3: [K3,M3]
M: [L,N]
M1: [L1,N1]
M2: [L2,N2]
M3: [L3,N3]
N: [M,O]
N1: [M1,O1]
N2: [M2,O2]
N3: [M3,O3]
O: [N,P]
O1: [N1,P1]
O2: [N2,P2]
O3: [N3,P3]
P: [O,Q]
P1: [O1,Q1]
P2: [O2,Q2]
P3: [O3,Q3]
Q: [P,R]
Q1: [P1,R1]
Q2: [P2,R2]
Q3: [P3,R3]
R: [Q,S]
R1: [Q1,S1]
R2: [Q2,S2]
R3: [Q3,S3]
S: [R,T]
S1: [R1,T1]
S2: [R2,T2]
S3: [R3,T3]
T: [S,U]
T1: [S1,U1]
T2: [S2,U2]
T3: [S3,U3]
U: [T,V]
U1: [T1,V1]
U2: [T2,V2]
U3: [T3,V3]
V: [U,W]
V1: [U1,W1]
V2: [U2,W2]
V3: [U3,W3]
W: [V,X]
W1: [V1,X1]
W2: [V2,X2]
W3: [V3,X3]
X: [W,Y]
X1: [W1,Y1]
X2: [W2,Y2]
X3: [W3,Y3]
Y: [X,Z]
Y1: [X1,Z1]
Y2: [X2,Z2]
Y3: [X3,Z3]
Z: [A1,Y]
Z1: [A2,Y1]
Z2: [A3,Y2]
Z3: [Y3]
Total time taken for discovery for machine
H: 4.503s
There are 104 machines in this topology. The following are the machines and their neighbors discovered from machine F:
A: [B]
A1: [B1,Z]
A2: [B2,Z1]
A3: [B3,Z2]
B: [A,C]
B1: [A1,C1]
B2: [A2,C2]
B3: [A3,C3]
C: [B,D]
C1: [B1,D1]
C2: [B2,D2]
C3: [B3,D3]
D: [C,E]
D1: [C1,E1]
D2: [C2,E2]
D3: [C3,E3]
E: [D,F]
E1: [D1,F1]
E2: [D2,F2]
E3: [D3,F3]
F: [E,G]
F1: [E1,G1]
F2: [E2,G2]
F3: [E3,G3]
G: [F,H]
G1: [F1,H1]
G2: [F2,H2]
G3: [F3,H3]
H: [G,I]
H1: [G1,I1]
H2: [G2,I2]
H3: [G3,I3]
I: [H,J]
I1: [H1,J1]
I2: [H2,J2]
I3: [H3,J3]
J: [I,K]
J1: [I1,K1]
J2: [I2,K2]
J3: [I3,K3]
K: [J,L]
K1: [J1,L1]
K2: [J2,L2]
K3: [J3,L3]
L: [K,M]
L1: [K1,M1]
L2: [K2,M2]
L3: [K3,M3]
M: [L,N]
M1: [L1,N1]
M2: [L2,N2]
M3: [L3,N3]
N: [M,O]
N1: [M1,O1]
N2: [M2,O2]
N3: [M3,O3]
O: [N,P]
O1: [N1,P1]
O2: [N2,P2]
O3: [N3,P3]
P: [O,Q]
P1: [O1,Q1]
P2: [O2,Q2]
P3: [O3,Q3]
Q: [P,R]
Q1: [P1,R1]
Q2: [P2,R2]
Q3: [P3,R3]
R: [Q,S]
R1: [Q1,S1]
R2: [Q2,S2]
R3: [Q3,S3]
S: [R,T]
S1: [R1,T1]
S2: [R2,T2]
S3: [R3,T3]
T: [S,U]
T1: [S1,U1]
T2: [S2,U2]
T3: [S3,U3]
U: [T,V]
U1: [T1,V1]
U2: [T2,V2]
U3: [T3,V3]
V: [U,W]
V1: [U1,W1]
V2: [U2,W2]
V3: [U3,W3]
W: [V,X]
W1: [V1,X1]
W2: [V2,X2]
W3: [V3,X3]
X: [W,Y]
X1: [W1,Y1]
X2: [W2,Y2]
X3: [W3,Y3]
Y: [X,Z]
Y1: [X1,Z1]
Y2: [X2,Z2]
Y3: [X3,Z3]
Z: [A1,Y]
Z1: [A2,Y1]
Z2: [A3,Y2]
Z3: [Y3]
Total time taken for discovery for machine
F: 4.887s
There are 104 machines in this topology. The following are the machines and their neighbors discovered from machine I:
A: [B]
A1: [B1,Z]
A2: [B2,Z1]
A3: [B3,Z2]
B: [A,C]
B1: [A1,C1]
B2: [A2,C2]
B3: [A3,C3]
C: [B,D]
C1: [B1,D1]
C2: [B2,D2]
C3: [B3,D3]
D: [C,E]
D1: [C1,E1]
D2: [C2,E2]
D3: [C3,E3]
E: [D,F]
E1: [D1,F1]
E2: [D2,F2]
E3: [D3,F3]
F: [E,G]
F1: [E1,G1]
F2: [E2,G2]
F3: [E3,G3]
G: [F,H]
G1: [F1,H1]
G2: [F2,H2]
G3: [F3,H3]
H: [G,I]
H1: [G1,I1]
H2: [G2,I2]
H3: [G3,I3]
I: [H,J]
I1: [H1,J1]
I2: [H2,J2]
I3: [H3,J3]
J: [I,K]
J1: [I1,K1]
J2: [I2,K2]
J3: [I3,K3]
K: [J,L]
K1: [J1,L1]
K2: [J2,L2]
K3: [J3,L3]
L: [K,M]
L1: [K1,M1]
L2: [K2,M2]
L3: [K3,M3]
M: [L,N]
M1: [L1,N1]
M2: [L2,N2]
M3: [L3,N3]
N: [M,O]
N1: [M1,O1]
N2: [M2,O2]
N3: [M3,O3]
O: [N,P]
O1: [N1,P1]
O2: [N2,P2]
O3: [N3,P3]
P: [O,Q]
P1: [O1,Q1]
P2: [O2,Q2]
P3: [O3,Q3]
Q: [P,R]
Q1: [P1,R1]
Q2: [P2,R2]
Q3: [P3,R3]
R: [Q,S]
R1: [Q1,S1]
R2: [Q2,S2]
R3: [Q3,S3]
S: [R,T]
S1: [R1,T1]
S2: [R2,T2]
S3: [R3,T3]
T: [S,U]
T1: [S1,U1]
T2: [S2,U2]
T3: [S3,U3]
U: [T,V]
U1: [T1,V1]
U2: [T2,V2]
U3: [T3,V3]
V: [U,W]
V1: [U1,W1]
V2: [U2,W2]
V3: [U3,W3]
W: [V,X]
W1: [V1,X1]
W2: [V2,X2]
W3: [V3,X3]
X: [W,Y]
X1: [W1,Y1]
X2: [W2,Y2]
X3: [W3,Y3]
Y: [X,Z]
Y1: [X1,Z1]
Y2: [X2,Z2]
Y3: [X3,Z3]
Z: [A1,Y]
Z1: [A2,Y1]
Z2: [A3,Y2]
Z3: [Y3]
Total time taken for discovery for machine
I: 4.129s
There are 104 machines in this topology. The following are the machines and their neighbors discovered from machine G:
A: [B]
A1: [B1,Z]
A2: [B2,Z1]
A3: [B3,Z2]
B: [A,C]
B1: [A1,C1]
B2: [A2,C2]
B3: [A3,C3]
C: [B,D]
C1: [B1,D1]
C2: [B2,D2]
C3: [B3,D3]
D: [C,E]
D1: [C1,E1]
D2: [C2,E2]
D3: [C3,E3]
E: [D,F]
E1: [D1,F1]
E2: [D2,F2]
E3: [D3,F3]
F: [E,G]
F1: [E1,G1]
F2: [E2,G2]
F3: [E3,G3]
G: [F,H]
G1: [F1,H1]
G2: [F2,H2]
G3: [F3,H3]
H: [G,I]
H1: [G1,I1]
H2: [G2,I2]
H3: [G3,I3]
I: [H,J]
I1: [H1,J1]
I2: [H2,J2]
I3: [H3,J3]
J: [I,K]
J1: [I1,K1]
J2: [I2,K2]
J3: [I3,K3]
K: [J,L]
K1: [J1,L1]
K2: [J2,L2]
K3: [J3,L3]
L: [K,M]
L1: [K1,M1]
L2: [K2,M2]
L3: [K3,M3]
M: [L,N]
M1: [L1,N1]
M2: [L2,N2]
M3: [L3,N3]
N: [M,O]
N1: [M1,O1]
N2: [M2,O2]
N3: [M3,O3]
O: [N,P]
O1: [N1,P1]
O2: [N2,P2]
O3: [N3,P3]
P: [O,Q]
P1: [O1,Q1]
P2: [O2,Q2]
P3: [O3,Q3]
Q: [P,R]
Q1: [P1,R1]
Q2: [P2,R2]
Q3: [P3,R3]
R: [Q,S]
R1: [Q1,S1]
R2: [Q2,S2]
R3: [Q3,S3]
S: [R,T]
S1: [R1,T1]
S2: [R2,T2]
S3: [R3,T3]
T: [S,U]
T1: [S1,U1]
T2: [S2,U2]
T3: [S3,U3]
U: [T,V]
U1: [T1,V1]
U2: [T2,V2]
U3: [T3,V3]
V: [U,W]
V1: [U1,W1]
V2: [U2,W2]
V3: [U3,W3]
W: [V,X]
W1: [V1,X1]
W2: [V2,X2]
W3: [V3,X3]
X: [W,Y]
X1: [W1,Y1]
X2: [W2,Y2]
X3: [W3,Y3]
Y: [X,Z]
Y1: [X1,Z1]
Y2: [X2,Z2]
Y3: [X3,Z3]
Z: [A1,Y]
Z1: [A2,Y1]
Z2: [A3,Y2]
Z3: [Y3]
Total time taken for discovery for machine
G: 4.044s
There are 104 machines in this topology. The following are the machines and their neighbors discovered from machine J:
A: [B]
A1: [B1,Z]
A2: [B2,Z1]
A3: [B3,Z2]
B: [A,C]
B1: [A1,C1]
B2: [A2,C2]
B3: [A3,C3]
C: [B,D]
C1: [B1,D1]
C2: [B2,D2]
C3: [B3,D3]
D: [C,E]
D1: [C1,E1]
D2: [C2,E2]
D3: [C3,E3]
E: [D,F]
E1: [D1,F1]
E2: [D2,F2]
E3: [D3,F3]
F: [E,G]
F1: [E1,G1]
F2: [E2,G2]
F3: [E3,G3]
G: [F,H]
G1: [F1,H1]
G2: [F2,H2]
G3: [F3,H3]
H: [G,I]
H1: [G1,I1]
H2: [G2,I2]
H3: [G3,I3]
I: [H,J]
I1: [H1,J1]
I2: [H2,J2]
I3: [H3,J3]
J: [I,K]
J1: [I1,K1]
J2: [I2,K2]
J3: [I3,K3]
K: [J,L]
K1: [J1,L1]
K2: [J2,L2]
K3: [J3,L3]
L: [K,M]
L1: [K1,M1]
L2: [K2,M2]
L3: [K3,M3]
M: [L,N]
M1: [L1,N1]
M2: [L2,N2]
M3: [L3,N3]
N: [M,O]
N1: [M1,O1]
N2: [M2,O2]
N3: [M3,O3]
O: [N,P]
O1: [N1,P1]
O2: [N2,P2]
O3: [N3,P3]
P: [O,Q]
P1: [O1,Q1]
P2: [O2,Q2]
P3: [O3,Q3]
Q: [P,R]
Q1: [P1,R1]
Q2: [P2,R2]
Q3: [P3,R3]
R: [Q,S]
R1: [Q1,S1]
R2: [Q2,S2]
R3: [Q3,S3]
S: [R,T]
S1: [R1,T1]
S2: [R2,T2]
S3: [R3,T3]
T: [S,U]
T1: [S1,U1]
T2: [S2,U2]
T3: [S3,U3]
U: [T,V]
U1: [T1,V1]
U2: [T2,V2]
U3: [T3,V3]
V: [U,W]
V1: [U1,W1]
V2: [U2,W2]
V3: [U3,W3]
W: [V,X]
W1: [V1,X1]
W2: [V2,X2]
W3: [V3,X3]
X: [W,Y]
X1: [W1,Y1]
X2: [W2,Y2]
X3: [W3,Y3]
Y: [X,Z]
Y1: [X1,Z1]
Y2: [X2,Z2]
Y3: [X3,Z3]
Z: [A1,Y]
Z1: [A2,Y1]
Z2: [A3,Y2]
Z3: [Y3]
Total time taken for discovery for machine
J: 4.092s
There are 104 machines in this topology. The following are the machines and their neighbors discovered from machine M:
A: [B]
A1: [B1,Z]
A2: [B2,Z1]
A3: [B3,Z2]
B: [A,C]
B1: [A1,C1]
B2: [A2,C2]
B3: [A3,C3]
C: [B,D]
C1: [B1,D1]
C2: [B2,D2]
C3: [B3,D3]
D: [C,E]
D1: [C1,E1]
D2: [C2,E2]
D3: [C3,E3]
E: [D,F]
E1: [D1,F1]
E2: [D2,F2]
E3: [D3,F3]
F: [E,G]
F1: [E1,G1]
F2: [E2,G2]
F3: [E3,G3]
G: [F,H]
G1: [F1,H1]
G2: [F2,H2]
G3: [F3,H3]
H: [G,I]
H1: [G1,I1]
H2: [G2,I2]
H3: [G3,I3]
I: [H,J]
I1: [H1,J1]
I2: [H2,J2]
I3: [H3,J3]
J: [I,K]
J1: [I1,K1]
J2: [I2,K2]
J3: [I3,K3]
K: [J,L]
K1: [J1,L1]
K2: [J2,L2]
K3: [J3,L3]
L: [K,M]
L1: [K1,M1]
L2: [K2,M2]
L3: [K3,M3]
M: [L,N]
M1: [L1,N1]
M2: [L2,N2]
M3: [L3,N3]
N: [M,O]
N1: [M1,O1]
N2: [M2,O2]
N3: [M3,O3]
O: [N,P]
O1: [N1,P1]
O2: [N2,P2]
O3: [N3,P3]
P: [O,Q]
P1: [O1,Q1]
P2: [O2,Q2]
P3: [O3,Q3]
Q: [P,R]
Q1: [P1,R1]
Q2: [P2,R2]
Q3: [P3,R3]
R: [Q,S]
R1: [Q1,S1]
R2: [Q2,S2]
R3: [Q3,S3]
S: [R,T]
S1: [R1,T1]
S2: [R2,T2]
S3: [R3,T3]
T: [S,U]
T1: [S1,U1]
T2: [S2,U2]
T3: [S3,U3]
U: [T,V]
U1: [T1,V1]
U2: [T2,V2]
U3: [T3,V3]
V: [U,W]
V1: [U1,W1]
V2: [U2,W2]
V3: [U3,W3]
W: [V,X]
W1: [V1,X1]
W2: [V2,X2]
W3: [V3,X3]
X: [W,Y]
X1: [W1,Y1]
X2: [W2,Y2]
X3: [W3,Y3]
Y: [X,Z]
Y1: [X1,Z1]
Y2: [X2,Z2]
Y3: [X3,Z3]
Z: [A1,Y]
Z1: [A2,Y1]
Z2: [A3,Y2]
Z3: [Y3]
Total time taken for discovery for machine
M: 4.542s
There are 104 machines in this topology. The following are the machines and their neighbors discovered from machine N:
A: [B]
A1: [B1,Z]
A2: [B2,Z1]
A3: [B3,Z2]
B: [A,C]
B1: [A1,C1]
B2: [A2,C2]
B3: [A3,C3]
C: [B,D]
C1: [B1,D1]
C2: [B2,D2]
C3: [B3,D3]
D: [C,E]
D1: [C1,E1]
D2: [C2,E2]
D3: [C3,E3]
E: [D,F]
E1: [D1,F1]
E2: [D2,F2]
E3: [D3,F3]
F: [E,G]
F1: [E1,G1]
F2: [E2,G2]
F3: [E3,G3]
G: [F,H]
G1: [F1,H1]
G2: [F2,H2]
G3: [F3,H3]
H: [G,I]
H1: [G1,I1]
H2: [G2,I2]
H3: [G3,I3]
I: [H,J]
I1: [H1,J1]
I2: [H2,J2]
I3: [H3,J3]
J: [I,K]
J1: [I1,K1]
J2: [I2,K2]
J3: [I3,K3]
K: [J,L]
K1: [J1,L1]
K2: [J2,L2]
K3: [J3,L3]
L: [K,M]
L1: [K1,M1]
L2: [K2,M2]
L3: [K3,M3]
M: [L,N]
M1: [L1,N1]
M2: [L2,N2]
M3: [L3,N3]
N: [M,O]
N1: [M1,O1]
N2: [M2,O2]
N3: [M3,O3]
O: [N,P]
O1: [N1,P1]
O2: [N2,P2]
O3: [N3,P3]
P: [O,Q]
P1: [O1,Q1]
P2: [O2,Q2]
P3: [O3,Q3]
Q: [P,R]
Q1: [P1,R1]
Q2: [P2,R2]
Q3: [P3,R3]
R: [Q,S]
R1: [Q1,S1]
R2: [Q2,S2]
R3: [Q3,S3]
S: [R,T]
S1: [R1,T1]
S2: [R2,T2]
S3: [R3,T3]
T: [S,U]
T1: [S1,U1]
T2: [S2,U2]
T3: [S3,U3]
U: [T,V]
U1: [T1,V1]
U2: [T2,V2]
U3: [T3,V3]
V: [U,W]
V1: [U1,W1]
V2: [U2,W2]
V3: [U3,W3]
W: [V,X]
W1: [V1,X1]
W2: [V2,X2]
W3: [V3,X3]
X: [W,Y]
X1: [W1,Y1]
X2: [W2,Y2]
X3: [W3,Y3]
Y: [X,Z]
Y1: [X1,Z1]
Y2: [X2,Z2]
Y3: [X3,Z3]
Z: [A1,Y]
Z1: [A2,Y1]
Z2: [A3,Y2]
Z3: [Y3]
Total time taken for discovery for machine
N: 4.618s
There are 104 machines in this topology. The following are the machines and their neighbors discovered from machine O:
A: [B]
A1: [B1,Z]
A2: [B2,Z1]
A3: [B3,Z2]
B: [A,C]
B1: [A1,C1]
B2: [A2,C2]
B3: [A3,C3]
C: [B,D]
C1: [B1,D1]
C2: [B2,D2]
C3: [B3,D3]
D: [C,E]
D1: [C1,E1]
D2: [C2,E2]
D3: [C3,E3]
E: [D,F]
E1: [D1,F1]
E2: [D2,F2]
E3: [D3,F3]
F: [E,G]
F1: [E1,G1]
F2: [E2,G2]
F3: [E3,G3]
G: [F,H]
G1: [F1,H1]
G2: [F2,H2]
G3: [F3,H3]
H: [G,I]
H1: [G1,I1]
H2: [G2,I2]
H3: [G3,I3]
I: [H,J]
I1: [H1,J1]
I2: [H2,J2]
I3: [H3,J3]
J: [I,K]
J1: [I1,K1]
J2: [I2,K2]
J3: [I3,K3]
K: [J,L]
K1: [J1,L1]
K2: [J2,L2]
K3: [J3,L3]
L: [K,M]
L1: [K1,M1]
L2: [K2,M2]
L3: [K3,M3]
M: [L,N]
M1: [L1,N1]
M2: [L2,N2]
M3: [L3,N3]
N: [M,O]
N1: [M1,O1]
N2: [M2,O2]
N3: [M3,O3]
O: [N,P]
O1: [N1,P1]
O2: [N2,P2]
O3: [N3,P3]
P: [O,Q]
P1: [O1,Q1]
P2: [O2,Q2]
P3: [O3,Q3]
Q: [P,R]
Q1: [P1,R1]
Q2: [P2,R2]
Q3: [P3,R3]
R: [Q,S]
R1: [Q1,S1]
R2: [Q2,S2]
R3: [Q3,S3]
S: [R,T]
S1: [R1,T1]
S2: [R2,T2]
S3: [R3,T3]
T: [S,U]
T1: [S1,U1]
T2: [S2,U2]
T3: [S3,U3]
U: [T,V]
U1: [T1,V1]
U2: [T2,V2]
U3: [T3,V3]
V: [U,W]
V1: [U1,W1]
V2: [U2,W2]
V3: [U3,W3]
W: [V,X]
W1: [V1,X1]
W2: [V2,X2]
W3: [V3,X3]
X: [W,Y]
X1: [W1,Y1]
X2: [W2,Y2]
X3: [W3,Y3]
Y: [X,Z]
Y1: [X1,Z1]
Y2: [X2,Z2]
Y3: [X3,Z3]
Z: [A1,Y]
Z1: [A2,Y1]
Z2: [A3,Y2]
Z3: [Y3]
Total time taken for discovery for machine
O: 4.371s
There are 104 machines in this topology. The following are the machines and their neighbors discovered from machine L:
A: [B]
A1: [B1,Z]
A2: [B2,Z1]
A3: [B3,Z2]
B: [A,C]
B1: [A1,C1]
B2: [A2,C2]
B3: [A3,C3]
C: [B,D]
C1: [B1,D1]
C2: [B2,D2]
C3: [B3,D3]
D: [C,E]
D1: [C1,E1]
D2: [C2,E2]
D3: [C3,E3]
E: [D,F]
E1: [D1,F1]
E2: [D2,F2]
E3: [D3,F3]
F: [E,G]
F1: [E1,G1]
F2: [E2,G2]
F3: [E3,G3]
G: [F,H]
G1: [F1,H1]
G2: [F2,H2]
G3: [F3,H3]
H: [G,I]
H1: [G1,I1]
H2: [G2,I2]
H3: [G3,I3]
I: [H,J]
I1: [H1,J1]
I2: [H2,J2]
I3: [H3,J3]
J: [I,K]
J1: [I1,K1]
J2: [I2,K2]
J3: [I3,K3]
K: [J,L]
K1: [J1,L1]
K2: [J2,L2]
K3: [J3,L3]
L: [K,M]
L1: [K1,M1]
L2: [K2,M2]
L3: [K3,M3]
M: [L,N]
M1: [L1,N1]
M2: [L2,N2]
M3: [L3,N3]
N: [M,O]
N1: [M1,O1]
N2: [M2,O2]
N3: [M3,O3]
O: [N,P]
O1: [N1,P1]
O2: [N2,P2]
O3: [N3,P3]
P: [O,Q]
P1: [O1,Q1]
P2: [O2,Q2]
P3: [O3,Q3]
Q: [P,R]
Q1: [P1,R1]
Q2: [P2,R2]
Q3: [P3,R3]
R: [Q,S]
R1: [Q1,S1]
R2: [Q2,S2]
R3: [Q3,S3]
S: [R,T]
S1: [R1,T1]
S2: [R2,T2]
S3: [R3,T3]
T: [S,U]
T1: [S1,U1]
T2: [S2,U2]
T3: [S3,U3]
U: [T,V]
U1: [T1,V1]
U2: [T2,V2]
U3: [T3,V3]
V: [U,W]
V1: [U1,W1]
V2: [U2,W2]
V3: [U3,W3]
W: [V,X]
W1: [V1,X1]
W2: [V2,X2]
W3: [V3,X3]
X: [W,Y]
X1: [W1,Y1]
X2: [W2,Y2]
X3: [W3,Y3]
Y: [X,Z]
Y1: [X1,Z1]
Y2: [X2,Z2]
Y3: [X3,Z3]
Z: [A1,Y]
Z1: [A2,Y1]
Z2: [A3,Y2]
Z3: [Y3]
Total time taken for discovery for machine
L: 4.021s
There are 104 machines in this topology. The following are the machines and their neighbors discovered from machine K:
A: [B]
A1: [B1,Z]
A2: [B2,Z1]
A3: [B3,Z2]
B: [A,C]
B1: [A1,C1]
B2: [A2,C2]
B3: [A3,C3]
C: [B,D]
C1: [B1,D1]
C2: [B2,D2]
C3: [B3,D3]
D: [C,E]
D1: [C1,E1]
D2: [C2,E2]
D3: [C3,E3]
E: [D,F]
E1: [D1,F1]
E2: [D2,F2]
E3: [D3,F3]
F: [E,G]
F1: [E1,G1]
F2: [E2,G2]
F3: [E3,G3]
G: [F,H]
G1: [F1,H1]
G2: [F2,H2]
G3: [F3,H3]
H: [G,I]
H1: [G1,I1]
H2: [G2,I2]
H3: [G3,I3]
I: [H,J]
I1: [H1,J1]
I2: [H2,J2]
I3: [H3,J3]
J: [I,K]
J1: [I1,K1]
J2: [I2,K2]
J3: [I3,K3]
K: [J,L]
K1: [J1,L1]
K2: [J2,L2]
K3: [J3,L3]
L: [K,M]
L1: [K1,M1]
L2: [K2,M2]
L3: [K3,M3]
M: [L,N]
M1: [L1,N1]
M2: [L2,N2]
M3: [L3,N3]
N: [M,O]
N1: [M1,O1]
N2: [M2,O2]
N3: [M3,O3]
O: [N,P]
O1: [N1,P1]
O2: [N2,P2]
O3: [N3,P3]
P: [O,Q]
P1: [O1,Q1]
P2: [O2,Q2]
P3: [O3,Q3]
Q: [P,R]
Q1: [P1,R1]
Q2: [P2,R2]
Q3: [P3,R3]
R: [Q,S]
R1: [Q1,S1]
R2: [Q2,S2]
R3: [Q3,S3]
S: [R,T]
S1: [R1,T1]
S2: [R2,T2]
S3: [R3,T3]
T: [S,U]
T1: [S1,U1]
T2: [S2,U2]
T3: [S3,U3]
U: [T,V]
U1: [T1,V1]
U2: [T2,V2]
U3: [T3,V3]
V: [U,W]
V1: [U1,W1]
V2: [U2,W2]
V3: [U3,W3]
W: [V,X]
W1: [V1,X1]
W2: [V2,X2]
W3: [V3,X3]
X: [W,Y]
X1: [W1,Y1]
X2: [W2,Y2]
X3: [W3,Y3]
Y: [X,Z]
Y1: [X1,Z1]
Y2: [X2,Z2]
Y3: [X3,Z3]
Z: [A1,Y]
Z1: [A2,Y1]
Z2: [A3,Y2]
Z3: [Y3]
Total time taken for discovery for machine
K: 4.061s
There are 104 machines in this topology. The following are the machines and their neighbors discovered from machine T:
A: [B]
A1: [B1,Z]
A2: [B2,Z1]
A3: [B3,Z2]
B: [A,C]
B1: [A1,C1]
B2: [A2,C2]
B3: [A3,C3]
C: [B,D]
C1: [B1,D1]
C2: [B2,D2]
C3: [B3,D3]
D: [C,E]
D1: [C1,E1]
D2: [C2,E2]
D3: [C3,E3]
E: [D,F]
E1: [D1,F1]
E2: [D2,F2]
E3: [D3,F3]
F: [E,G]
F1: [E1,G1]
F2: [E2,G2]
F3: [E3,G3]
G: [F,H]
G1: [F1,H1]
G2: [F2,H2]
G3: [F3,H3]
H: [G,I]
H1: [G1,I1]
H2: [G2,I2]
H3: [G3,I3]
I: [H,J]
I1: [H1,J1]
I2: [H2,J2]
I3: [H3,J3]
J: [I,K]
J1: [I1,K1]
J2: [I2,K2]
J3: [I3,K3]
K: [J,L]
K1: [J1,L1]
K2: [J2,L2]
K3: [J3,L3]
L: [K,M]
L1: [K1,M1]
L2: [K2,M2]
L3: [K3,M3]
M: [L,N]
M1: [L1,N1]
M2: [L2,N2]
M3: [L3,N3]
N: [M,O]
N1: [M1,O1]
N2: [M2,O2]
N3: [M3,O3]
O: [N,P]
O1: [N1,P1]
O2: [N2,P2]
O3: [N3,P3]
P: [O,Q]
P1: [O1,Q1]
P2: [O2,Q2]
P3: [O3,Q3]
Q: [P,R]
Q1: [P1,R1]
Q2: [P2,R2]
Q3: [P3,R3]
R: [Q,S]
R1: [Q1,S1]
R2: [Q2,S2]
R3: [Q3,S3]
S: [R,T]
S1: [R1,T1]
S2: [R2,T2]
S3: [R3,T3]
T: [S,U]
T1: [S1,U1]
T2: [S2,U2]
T3: [S3,U3]
U: [T,V]
U1: [T1,V1]
U2: [T2,V2]
U3: [T3,V3]
V: [U,W]
V1: [U1,W1]
V2: [U2,W2]
V3: [U3,W3]
W: [V,X]
W1: [V1,X1]
W2: [V2,X2]
W3: [V3,X3]
X: [W,Y]
X1: [W1,Y1]
X2: [W2,Y2]
X3: [W3,Y3]
Y: [X,Z]
Y1: [X1,Z1]
Y2: [X2,Z2]
Y3: [X3,Z3]
Z: [A1,Y]
Z1: [A2,Y1]
Z2: [A3,Y2]
Z3: [Y3]
Total time taken for discovery for machine
T: 4.174s
There are 104 machines in this topology. The following are the machines and their neighbors discovered from machine S:
A: [B]
A1: [B1,Z]
A2: [B2,Z1]
A3: [B3,Z2]
B: [A,C]
B1: [A1,C1]
B2: [A2,C2]
B3: [A3,C3]
C: [B,D]
C1: [B1,D1]
C2: [B2,D2]
C3: [B3,D3]
D: [C,E]
D1: [C1,E1]
D2: [C2,E2]
D3: [C3,E3]
E: [D,F]
E1: [D1,F1]
E2: [D2,F2]
E3: [D3,F3]
F: [E,G]
F1: [E1,G1]
F2: [E2,G2]
F3: [E3,G3]
G: [F,H]
G1: [F1,H1]
G2: [F2,H2]
G3: [F3,H3]
H: [G,I]
H1: [G1,I1]
H2: [G2,I2]
H3: [G3,I3]
I: [H,J]
I1: [H1,J1]
I2: [H2,J2]
I3: [H3,J3]
J: [I,K]
J1: [I1,K1]
J2: [I2,K2]
J3: [I3,K3]
K: [J,L]
K1: [J1,L1]
K2: [J2,L2]
K3: [J3,L3]
L: [K,M]
L1: [K1,M1]
L2: [K2,M2]
L3: [K3,M3]
M: [L,N]
M1: [L1,N1]
M2: [L2,N2]
M3: [L3,N3]
N: [M,O]
N1: [M1,O1]
N2: [M2,O2]
N3: [M3,O3]
O: [N,P]
O1: [N1,P1]
O2: [N2,P2]
O3: [N3,P3]
P: [O,Q]
P1: [O1,Q1]
P2: [O2,Q2]
P3: [O3,Q3]
Q: [P,R]
Q1: [P1,R1]
Q2: [P2,R2]
Q3: [P3,R3]
R: [Q,S]
R1: [Q1,S1]
R2: [Q2,S2]
R3: [Q3,S3]
S: [R,T]
S1: [R1,T1]
S2: [R2,T2]
S3: [R3,T3]
T: [S,U]
T1: [S1,U1]
T2: [S2,U2]
T3: [S3,U3]
U: [T,V]
U1: [T1,V1]
U2: [T2,V2]
U3: [T3,V3]
V: [U,W]
V1: [U1,W1]
V2: [U2,W2]
V3: [U3,W3]
W: [V,X]
W1: [V1,X1]
W2: [V2,X2]
W3: [V3,X3]
X: [W,Y]
X1: [W1,Y1]
X2: [W2,Y2]
X3: [W3,Y3]
Y: [X,Z]
Y1: [X1,Z1]
Y2: [X2,Z2]
Y3: [X3,Z3]
Z: [A1,Y]
Z1: [A2,Y1]
Z2: [A3,Y2]
Z3: [Y3]
Total time taken for discovery for machine
S: 4.489s
There are 104 machines in this topology. The following are the machines and their neighbors discovered from machine Q:
A: [B]
A1: [B1,Z]
A2: [B2,Z1]
A3: [B3,Z2]
B: [A,C]
B1: [A1,C1]
B2: [A2,C2]
B3: [A3,C3]
C: [B,D]
C1: [B1,D1]
C2: [B2,D2]
C3: [B3,D3]
D: [C,E]
D1: [C1,E1]
D2: [C2,E2]
D3: [C3,E3]
E: [D,F]
E1: [D1,F1]
E2: [D2,F2]
E3: [D3,F3]
F: [E,G]
F1: [E1,G1]
F2: [E2,G2]
F3: [E3,G3]
G: [F,H]
G1: [F1,H1]
G2: [F2,H2]
G3: [F3,H3]
H: [G,I]
H1: [G1,I1]
H2: [G2,I2]
H3: [G3,I3]
I: [H,J]
I1: [H1,J1]
I2: [H2,J2]
I3: [H3,J3]
J: [I,K]
J1: [I1,K1]
J2: [I2,K2]
J3: [I3,K3]
K: [J,L]
K1: [J1,L1]
K2: [J2,L2]
K3: [J3,L3]
L: [K,M]
L1: [K1,M1]
L2: [K2,M2]
L3: [K3,M3]
M: [L,N]
M1: [L1,N1]
M2: [L2,N2]
M3: [L3,N3]
N: [M,O]
N1: [M1,O1]
N2: [M2,O2]
N3: [M3,O3]
O: [N,P]
O1: [N1,P1]
O2: [N2,P2]
O3: [N3,P3]
P: [O,Q]
P1: [O1,Q1]
P2: [O2,Q2]
P3: [O3,Q3]
Q: [P,R]
Q1: [P1,R1]
Q2: [P2,R2]
Q3: [P3,R3]
R: [Q,S]
R1: [Q1,S1]
R2: [Q2,S2]
R3: [Q3,S3]
S: [R,T]
S1: [R1,T1]
S2: [R2,T2]
S3: [R3,T3]
T: [S,U]
T1: [S1,U1]
T2: [S2,U2]
T3: [S3,U3]
U: [T,V]
U1: [T1,V1]
U2: [T2,V2]
U3: [T3,V3]
V: [U,W]
V1: [U1,W1]
V2: [U2,W2]
V3: [U3,W3]
W: [V,X]
W1: [V1,X1]
W2: [V2,X2]
W3: [V3,X3]
X: [W,Y]
X1: [W1,Y1]
X2: [W2,Y2]
X3: [W3,Y3]
Y: [X,Z]
Y1: [X1,Z1]
Y2: [X2,Z2]
Y3: [X3,Z3]
Z: [A1,Y]
Z1: [A2,Y1]
Z2: [A3,Y2]
Z3: [Y3]
Total time taken for discovery for machine
Q: 4.789s
There are 104 machines in this topology. The following are the machines and their neighbors discovered from machine P:
A: [B]
A1: [B1,Z]
A2: [B2,Z1]
A3: [B3,Z2]
B: [A,C]
B1: [A1,C1]
B2: [A2,C2]
B3: [A3,C3]
C: [B,D]
C1: [B1,D1]
C2: [B2,D2]
C3: [B3,D3]
D: [C,E]
D1: [C1,E1]
D2: [C2,E2]
D3: [C3,E3]
E: [D,F]
E1: [D1,F1]
E2: [D2,F2]
E3: [D3,F3]
F: [E,G]
F1: [E1,G1]
F2: [E2,G2]
F3: [E3,G3]
G: [F,H]
G1: [F1,H1]
G2: [F2,H2]
G3: [F3,H3]
H: [G,I]
H1: [G1,I1]
H2: [G2,I2]
H3: [G3,I3]
I: [H,J]
I1: [H1,J1]
I2: [H2,J2]
I3: [H3,J3]
J: [I,K]
J1: [I1,K1]
J2: [I2,K2]
J3: [I3,K3]
K: [J,L]
K1: [J1,L1]
K2: [J2,L2]
K3: [J3,L3]
L: [K,M]
L1: [K1,M1]
L2: [K2,M2]
L3: [K3,M3]
M: [L,N]
M1: [L1,N1]
M2: [L2,N2]
M3: [L3,N3]
N: [M,O]
N1: [M1,O1]
N2: [M2,O2]
N3: [M3,O3]
O: [N,P]
O1: [N1,P1]
O2: [N2,P2]
O3: [N3,P3]
P: [O,Q]
P1: [O1,Q1]
P2: [O2,Q2]
P3: [O3,Q3]
Q: [P,R]
Q1: [P1,R1]
Q2: [P2,R2]
Q3: [P3,R3]
R: [Q,S]
R1: [Q1,S1]
R2: [Q2,S2]
R3: [Q3,S3]
S: [R,T]
S1: [R1,T1]
S2: [R2,T2]
S3: [R3,T3]
T: [S,U]
T1: [S1,U1]
T2: [S2,U2]
T3: [S3,U3]
U: [T,V]
U1: [T1,V1]
U2: [T2,V2]
U3: [T3,V3]
V: [U,W]
V1: [U1,W1]
V2: [U2,W2]
V3: [U3,W3]
W: [V,X]
W1: [V1,X1]
W2: [V2,X2]
W3: [V3,X3]
X: [W,Y]
X1: [W1,Y1]
X2: [W2,Y2]
X3: [W3,Y3]
Y: [X,Z]
Y1: [X1,Z1]
Y2: [X2,Z2]
Y3: [X3,Z3]
Z: [A1,Y]
Z1: [A2,Y1]
Z2: [A3,Y2]
Z3: [Y3]
Total time taken for discovery for machine
P: 4.036s
There are 104 machines in this topology. The following are the machines and their neighbors discovered from machine R:
A: [B]
A1: [B1,Z]
A2: [B2,Z1]
A3: [B3,Z2]
B: [A,C]
B1: [A1,C1]
B2: [A2,C2]
B3: [A3,C3]
C: [B,D]
C1: [B1,D1]
C2: [B2,D2]
C3: [B3,D3]
D: [C,E]
D1: [C1,E1]
D2: [C2,E2]
D3: [C3,E3]
E: [D,F]
E1: [D1,F1]
E2: [D2,F2]
E3: [D3,F3]
F: [E,G]
F1: [E1,G1]
F2: [E2,G2]
F3: [E3,G3]
G: [F,H]
G1: [F1,H1]
G2: [F2,H2]
G3: [F3,H3]
H: [G,I]
H1: [G1,I1]
H2: [G2,I2]
H3: [G3,I3]
I: [H,J]
I1: [H1,J1]
I2: [H2,J2]
I3: [H3,J3]
J: [I,K]
J1: [I1,K1]
J2: [I2,K2]
J3: [I3,K3]
K: [J,L]
K1: [J1,L1]
K2: [J2,L2]
K3: [J3,L3]
L: [K,M]
L1: [K1,M1]
L2: [K2,M2]
L3: [K3,M3]
M: [L,N]
M1: [L1,N1]
M2: [L2,N2]
M3: [L3,N3]
N: [M,O]
N1: [M1,O1]
N2: [M2,O2]
N3: [M3,O3]
O: [N,P]
O1: [N1,P1]
O2: [N2,P2]
O3: [N3,P3]
P: [O,Q]
P1: [O1,Q1]
P2: [O2,Q2]
P3: [O3,Q3]
Q: [P,R]
Q1: [P1,R1]
Q2: [P2,R2]
Q3: [P3,R3]
R: [Q,S]
R1: [Q1,S1]
R2: [Q2,S2]
R3: [Q3,S3]
S: [R,T]
S1: [R1,T1]
S2: [R2,T2]
S3: [R3,T3]
T: [S,U]
T1: [S1,U1]
T2: [S2,U2]
T3: [S3,U3]
U: [T,V]
U1: [T1,V1]
U2: [T2,V2]
U3: [T3,V3]
V: [U,W]
V1: [U1,W1]
V2: [U2,W2]
V3: [U3,W3]
W: [V,X]
W1: [V1,X1]
W2: [V2,X2]
W3: [V3,X3]
X: [W,Y]
X1: [W1,Y1]
X2: [W2,Y2]
X3: [W3,Y3]
Y: [X,Z]
Y1: [X1,Z1]
Y2: [X2,Z2]
Y3: [X3,Z3]
Z: [A1,Y]
Z1: [A2,Y1]
Z2: [A3,Y2]
Z3: [Y3]
Total time taken for discovery for machine
R: 4.081s
There are 104 machines in this topology. The following are the machines and their neighbors discovered from machine X:
A: [B]
A1: [B1,Z]
A2: [B2,Z1]
A3: [B3,Z2]
B: [A,C]
B1: [A1,C1]
B2: [A2,C2]
B3: [A3,C3]
C: [B,D]
C1: [B1,D1]
C2: [B2,D2]
C3: [B3,D3]
D: [C,E]
D1: [C1,E1]
D2: [C2,E2]
D3: [C3,E3]
E: [D,F]
E1: [D1,F1]
E2: [D2,F2]
E3: [D3,F3]
F: [E,G]
F1: [E1,G1]
F2: [E2,G2]
F3: [E3,G3]
G: [F,H]
G1: [F1,H1]
G2: [F2,H2]
G3: [F3,H3]
H: [G,I]
H1: [G1,I1]
H2: [G2,I2]
H3: [G3,I3]
I: [H,J]
I1: [H1,J1]
I2: [H2,J2]
I3: [H3,J3]
J: [I,K]
J1: [I1,K1]
J2: [I2,K2]
J3: [I3,K3]
K: [J,L]
K1: [J1,L1]
K2: [J2,L2]
K3: [J3,L3]
L: [K,M]
L1: [K1,M1]
L2: [K2,M2]
L3: [K3,M3]
M: [L,N]
M1: [L1,N1]
M2: [L2,N2]
M3: [L3,N3]
N: [M,O]
N1: [M1,O1]
N2: [M2,O2]
N3: [M3,O3]
O: [N,P]
O1: [N1,P1]
O2: [N2,P2]
O3: [N3,P3]
P: [O,Q]
P1: [O1,Q1]
P2: [O2,Q2]
P3: [O3,Q3]
Q: [P,R]
Q1: [P1,R1]
Q2: [P2,R2]
Q3: [P3,R3]
R: [Q,S]
R1: [Q1,S1]
R2: [Q2,S2]
R3: [Q3,S3]
S: [R,T]
S1: [R1,T1]
S2: [R2,T2]
S3: [R3,T3]
T: [S,U]
T1: [S1,U1]
T2: [S2,U2]
T3: [S3,U3]
U: [T,V]
U1: [T1,V1]
U2: [T2,V2]
U3: [T3,V3]
V: [U,W]
V1: [U1,W1]
V2: [U2,W2]
V3: [U3,W3]
W: [V,X]
W1: [V1,X1]
W2: [V2,X2]
W3: [V3,X3]
X: [W,Y]
X1: [W1,Y1]
X2: [W2,Y2]
X3: [W3,Y3]
Y: [X,Z]
Y1: [X1,Z1]
Y2: [X2,Z2]
Y3: [X3,Z3]
Z: [A1,Y]
Z1: [A2,Y1]
Z2: [A3,Y2]
Z3: [Y3]
Total time taken for discovery for machine
X: 930.103ms
There are 104 machines in this topology. The following are the machines and their neighbors discovered from machine U:
A: [B]
A1: [B1,Z]
A2: [B2,Z1]
A3: [B3,Z2]
B: [A,C]
B1: [A1,C1]
B2: [A2,C2]
B3: [A3,C3]
C: [B,D]
C1: [B1,D1]
C2: [B2,D2]
C3: [B3,D3]
D: [C,E]
D1: [C1,E1]
D2: [C2,E2]
D3: [C3,E3]
E: [D,F]
E1: [D1,F1]
E2: [D2,F2]
E3: [D3,F3]
F: [E,G]
F1: [E1,G1]
F2: [E2,G2]
F3: [E3,G3]
G: [F,H]
G1: [F1,H1]
G2: [F2,H2]
G3: [F3,H3]
H: [G,I]
H1: [G1,I1]
H2: [G2,I2]
H3: [G3,I3]
I: [H,J]
I1: [H1,J1]
I2: [H2,J2]
I3: [H3,J3]
J: [I,K]
J1: [I1,K1]
J2: [I2,K2]
J3: [I3,K3]
K: [J,L]
K1: [J1,L1]
K2: [J2,L2]
K3: [J3,L3]
L: [K,M]
L1: [K1,M1]
L2: [K2,M2]
L3: [K3,M3]
M: [L,N]
M1: [L1,N1]
M2: [L2,N2]
M3: [L3,N3]
N: [M,O]
N1: [M1,O1]
N2: [M2,O2]
N3: [M3,O3]
O: [N,P]
O1: [N1,P1]
O2: [N2,P2]
O3: [N3,P3]
P: [O,Q]
P1: [O1,Q1]
P2: [O2,Q2]
P3: [O3,Q3]
Q: [P,R]
Q1: [P1,R1]
Q2: [P2,R2]
Q3: [P3,R3]
R: [Q,S]
R1: [Q1,S1]
R2: [Q2,S2]
R3: [Q3,S3]
S: [R,T]
S1: [R1,T1]
S2: [R2,T2]
S3: [R3,T3]
T: [S,U]
T1: [S1,U1]
T2: [S2,U2]
T3: [S3,U3]
U: [T,V]
U1: [T1,V1]
U2: [T2,V2]
U3: [T3,V3]
V: [U,W]
V1: [U1,W1]
V2: [U2,W2]
V3: [U3,W3]
W: [V,X]
W1: [V1,X1]
W2: [V2,X2]
W3: [V3,X3]
X: [W,Y]
X1: [W1,Y1]
X2: [W2,Y2]
X3: [W3,Y3]
Y: [X,Z]
Y1: [X1,Z1]
Y2: [X2,Z2]
Y3: [X3,Z3]
Z: [A1,Y]
Z1: [A2,Y1]
Z2: [A3,Y2]
Z3: [Y3]
Total time taken for discovery for machine
U: 978.455ms
There are 104 machines in this topology. The following are the machines and their neighbors discovered from machine W:
A: [B]
A1: [B1,Z]
A2: [B2,Z1]
A3: [B3,Z2]
B: [A,C]
B1: [A1,C1]
B2: [A2,C2]
B3: [A3,C3]
C: [B,D]
C1: [B1,D1]
C2: [B2,D2]
C3: [B3,D3]
D: [C,E]
D1: [C1,E1]
D2: [C2,E2]
D3: [C3,E3]
E: [D,F]
E1: [D1,F1]
E2: [D2,F2]
E3: [D3,F3]
F: [E,G]
F1: [E1,G1]
F2: [E2,G2]
F3: [E3,G3]
G: [F,H]
G1: [F1,H1]
G2: [F2,H2]
G3: [F3,H3]
H: [G,I]
H1: [G1,I1]
H2: [G2,I2]
H3: [G3,I3]
I: [H,J]
I1: [H1,J1]
I2: [H2,J2]
I3: [H3,J3]
J: [I,K]
J1: [I1,K1]
J2: [I2,K2]
J3: [I3,K3]
K: [J,L]
K1: [J1,L1]
K2: [J2,L2]
K3: [J3,L3]
L: [K,M]
L1: [K1,M1]
L2: [K2,M2]
L3: [K3,M3]
M: [L,N]
M1: [L1,N1]
M2: [L2,N2]
M3: [L3,N3]
N: [M,O]
N1: [M1,O1]
N2: [M2,O2]
N3: [M3,O3]
O: [N,P]
O1: [N1,P1]
O2: [N2,P2]
O3: [N3,P3]
P: [O,Q]
P1: [O1,Q1]
P2: [O2,Q2]
P3: [O3,Q3]
Q: [P,R]
Q1: [P1,R1]
Q2: [P2,R2]
Q3: [P3,R3]
R: [Q,S]
R1: [Q1,S1]
R2: [Q2,S2]
R3: [Q3,S3]
S: [R,T]
S1: [R1,T1]
S2: [R2,T2]
S3: [R3,T3]
T: [S,U]
T1: [S1,U1]
T2: [S2,U2]
T3: [S3,U3]
U: [T,V]
U1: [T1,V1]
U2: [T2,V2]
U3: [T3,V3]
V: [U,W]
V1: [U1,W1]
V2: [U2,W2]
V3: [U3,W3]
W: [V,X]
W1: [V1,X1]
W2: [V2,X2]
W3: [V3,X3]
X: [W,Y]
X1: [W1,Y1]
X2: [W2,Y2]
X3: [W3,Y3]
Y: [X,Z]
Y1: [X1,Z1]
Y2: [X2,Z2]
Y3: [X3,Z3]
Z: [A1,Y]
Z1: [A2,Y1]
Z2: [A3,Y2]
Z3: [Y3]
Total time taken for discovery for machine
W: 1.024s
There are 104 machines in this topology. The following are the machines and their neighbors discovered from machine V:
A: [B]
A1: [B1,Z]
A2: [B2,Z1]
A3: [B3,Z2]
B: [A,C]
B1: [A1,C1]
B2: [A2,C2]
B3: [A3,C3]
C: [B,D]
C1: [B1,D1]
C2: [B2,D2]
C3: [B3,D3]
D: [C,E]
D1: [C1,E1]
D2: [C2,E2]
D3: [C3,E3]
E: [D,F]
E1: [D1,F1]
E2: [D2,F2]
E3: [D3,F3]
F: [E,G]
F1: [E1,G1]
F2: [E2,G2]
F3: [E3,G3]
G: [F,H]
G1: [F1,H1]
G2: [F2,H2]
G3: [F3,H3]
H: [G,I]
H1: [G1,I1]
H2: [G2,I2]
H3: [G3,I3]
I: [H,J]
I1: [H1,J1]
I2: [H2,J2]
I3: [H3,J3]
J: [I,K]
J1: [I1,K1]
J2: [I2,K2]
J3: [I3,K3]
K: [J,L]
K1: [J1,L1]
K2: [J2,L2]
K3: [J3,L3]
L: [K,M]
L1: [K1,M1]
L2: [K2,M2]
L3: [K3,M3]
M: [L,N]
M1: [L1,N1]
M2: [L2,N2]
M3: [L3,N3]
N: [M,O]
N1: [M1,O1]
N2: [M2,O2]
N3: [M3,O3]
O: [N,P]
O1: [N1,P1]
O2: [N2,P2]
O3: [N3,P3]
P: [O,Q]
P1: [O1,Q1]
P2: [O2,Q2]
P3: [O3,Q3]
Q: [P,R]
Q1: [P1,R1]
Q2: [P2,R2]
Q3: [P3,R3]
R: [Q,S]
R1: [Q1,S1]
R2: [Q2,S2]
R3: [Q3,S3]
S: [R,T]
S1: [R1,T1]
S2: [R2,T2]
S3: [R3,T3]
T: [S,U]
T1: [S1,U1]
T2: [S2,U2]
T3: [S3,U3]
U: [T,V]
U1: [T1,V1]
U2: [T2,V2]
U3: [T3,V3]
V: [U,W]
V1: [U1,W1]
V2: [U2,W2]
V3: [U3,W3]
W: [V,X]
W1: [V1,X1]
W2: [V2,X2]
W3: [V3,X3]
X: [W,Y]
X1: [W1,Y1]
X2: [W2,Y2]
X3: [W3,Y3]
Y: [X,Z]
Y1: [X1,Z1]
Y2: [X2,Z2]
Y3: [X3,Z3]
Z: [A1,Y]
Z1: [A2,Y1]
Z2: [A3,Y2]
Z3: [Y3]
Total time taken for discovery for machine
V: 1.052s
There are 104 machines in this topology. The following are the machines and their neighbors discovered from machine Y:
A: [B]
A1: [B1,Z]
A2: [B2,Z1]
A3: [B3,Z2]
B: [A,C]
B1: [A1,C1]
B2: [A2,C2]
B3: [A3,C3]
C: [B,D]
C1: [B1,D1]
C2: [B2,D2]
C3: [B3,D3]
D: [C,E]
D1: [C1,E1]
D2: [C2,E2]
D3: [C3,E3]
E: [D,F]
E1: [D1,F1]
E2: [D2,F2]
E3: [D3,F3]
F: [E,G]
F1: [E1,G1]
F2: [E2,G2]
F3: [E3,G3]
G: [F,H]
G1: [F1,H1]
G2: [F2,H2]
G3: [F3,H3]
H: [G,I]
H1: [G1,I1]
H2: [G2,I2]
H3: [G3,I3]
I: [H,J]
I1: [H1,J1]
I2: [H2,J2]
I3: [H3,J3]
J: [I,K]
J1: [I1,K1]
J2: [I2,K2]
J3: [I3,K3]
K: [J,L]
K1: [J1,L1]
K2: [J2,L2]
K3: [J3,L3]
L: [K,M]
L1: [K1,M1]
L2: [K2,M2]
L3: [K3,M3]
M: [L,N]
M1: [L1,N1]
M2: [L2,N2]
M3: [L3,N3]
N: [M,O]
N1: [M1,O1]
N2: [M2,O2]
N3: [M3,O3]
O: [N,P]
O1: [N1,P1]
O2: [N2,P2]
O3: [N3,P3]
P: [O,Q]
P1: [O1,Q1]
P2: [O2,Q2]
P3: [O3,Q3]
Q: [P,R]
Q1: [P1,R1]
Q2: [P2,R2]
Q3: [P3,R3]
R: [Q,S]
R1: [Q1,S1]
R2: [Q2,S2]
R3: [Q3,S3]
S: [R,T]
S1: [R1,T1]
S2: [R2,T2]
S3: [R3,T3]
T: [S,U]
T1: [S1,U1]
T2: [S2,U2]
T3: [S3,U3]
U: [T,V]
U1: [T1,V1]
U2: [T2,V2]
U3: [T3,V3]
V: [U,W]
V1: [U1,W1]
V2: [U2,W2]
V3: [U3,W3]
W: [V,X]
W1: [V1,X1]
W2: [V2,X2]
W3: [V3,X3]
X: [W,Y]
X1: [W1,Y1]
X2: [W2,Y2]
X3: [W3,Y3]
Y: [X,Z]
Y1: [X1,Z1]
Y2: [X2,Z2]
Y3: [X3,Z3]
Z: [A1,Y]
Z1: [A2,Y1]
Z2: [A3,Y2]
Z3: [Y3]
Total time taken for discovery for machine
Y: 1.066s