There are 52 machines in this topology. The following are the machines and their neighbors discovered from machine N:
A: [B]
A1: [B1,Z]
B: [A,C]
B1: [A1,C1]
C: [B,D]
C1: [B1,D1]
D: [C,E]
D1: [C1,E1]
E: [D,F]
E1: [D1,F1]
F: [E,G]
F1: [E1,G1]
G: [F,H]
G1: [F1,H1]
H: [G,I]
H1: [G1,I1]
I: [H,J]
I1: [H1,J1]
J: [I,K]
J1: [I1,K1]
K: [J,L]
K1: [J1,L1]
L: [K,M]
L1: [K1,M1]
M: [L,N]
M1: [L1,N1]
N: [M,O]
N1: [M1,O1]
O: [N,P]
O1: [N1,P1]
P: [O,Q]
P1: [O1,Q1]
Q: [P,R]
Q1: [P1,R1]
R: [Q,S]
R1: [Q1,S1]
S: [R,T]
S1: [R1,T1]
T: [S,U]
T1: [S1,U1]
U: [T,V]
U1: [T1,V1]
V: [U,W]
V1: [U1,W1]
W: [V,X]
W1: [V1,X1]
X: [W,Y]
X1: [W1,Y1]
Y: [X,Z]
Y1: [X1,Z1]
Z: [A1,Y]
Z1: [Y1]
Total time taken for discovery for machine
N: 1.068s
There are 52 machines in this topology. The following are the machines and their neighbors discovered from machine G:
A: [B]
A1: [B1,Z]
B: [A,C]
B1: [A1,C1]
C: [B,D]
C1: [B1,D1]
D: [C,E]
D1: [C1,E1]
E: [D,F]
E1: [D1,F1]
F: [E,G]
F1: [E1,G1]
G: [F,H]
G1: [F1,H1]
H: [G,I]
H1: [G1,I1]
I: [H,J]
I1: [H1,J1]
J: [I,K]
J1: [I1,K1]
K: [J,L]
K1: [J1,L1]
L: [K,M]
L1: [K1,M1]
M: [L,N]
M1: [L1,N1]
N: [M,O]
N1: [M1,O1]
O: [N,P]
O1: [N1,P1]
P: [O,Q]
P1: [O1,Q1]
Q: [P,R]
Q1: [P1,R1]
R: [Q,S]
R1: [Q1,S1]
S: [R,T]
S1: [R1,T1]
T: [S,U]
T1: [S1,U1]
U: [T,V]
U1: [T1,V1]
V: [U,W]
V1: [U1,W1]
W: [V,X]
W1: [V1,X1]
X: [W,Y]
X1: [W1,Y1]
Y: [X,Z]
Y1: [X1,Z1]
Z: [A1,Y]
Z1: [Y1]
Total time taken for discovery for machine
G: 1.096s
There are 52 machines in this topology. The following are the machines and their neighbors discovered from machine E:
A: [B]
A1: [B1,Z]
B: [A,C]
B1: [A1,C1]
C: [B,D]
C1: [B1,D1]
D: [C,E]
D1: [C1,E1]
E: [D,F]
E1: [D1,F1]
F: [E,G]
F1: [E1,G1]
G: [F,H]
G1: [F1,H1]
H: [G,I]
H1: [G1,I1]
I: [H,J]
I1: [H1,J1]
J: [I,K]
J1: [I1,K1]
K: [J,L]
K1: [J1,L1]
L: [K,M]
L1: [K1,M1]
M: [L,N]
M1: [L1,N1]
N: [M,O]
N1: [M1,O1]
O: [N,P]
O1: [N1,P1]
P: [O,Q]
P1: [O1,Q1]
Q: [P,R]
Q1: [P1,R1]
R: [Q,S]
R1: [Q1,S1]
S: [R,T]
S1: [R1,T1]
T: [S,U]
T1: [S1,U1]
U: [T,V]
U1: [T1,V1]
V: [U,W]
V1: [U1,W1]
W: [V,X]
W1: [V1,X1]
X: [W,Y]
X1: [W1,Y1]
Y: [X,Z]
Y1: [X1,Z1]
Z: [A1,Y]
Z1: [Y1]
Total time taken for discovery for machine
E: 1.115s
There are 52 machines in this topology. The following are the machines and their neighbors discovered from machine O:
A: [B]
A1: [B1,Z]
B: [A,C]
B1: [A1,C1]
C: [B,D]
C1: [B1,D1]
D: [C,E]
D1: [C1,E1]
E: [D,F]
E1: [D1,F1]
F: [E,G]
F1: [E1,G1]
G: [F,H]
G1: [F1,H1]
H: [G,I]
H1: [G1,I1]
I: [H,J]
I1: [H1,J1]
J: [I,K]
J1: [I1,K1]
K: [J,L]
K1: [J1,L1]
L: [K,M]
L1: [K1,M1]
M: [L,N]
M1: [L1,N1]
N: [M,O]
N1: [M1,O1]
O: [N,P]
O1: [N1,P1]
P: [O,Q]
P1: [O1,Q1]
Q: [P,R]
Q1: [P1,R1]
R: [Q,S]
R1: [Q1,S1]
S: [R,T]
S1: [R1,T1]
T: [S,U]
T1: [S1,U1]
U: [T,V]
U1: [T1,V1]
V: [U,W]
V1: [U1,W1]
W: [V,X]
W1: [V1,X1]
X: [W,Y]
X1: [W1,Y1]
Y: [X,Z]
Y1: [X1,Z1]
Z: [A1,Y]
Z1: [Y1]
Total time taken for discovery for machine
O: 1.132s
There are 52 machines in this topology. The following are the machines and their neighbors discovered from machine L:
A: [B]
A1: [B1,Z]
B: [A,C]
B1: [A1,C1]
C: [B,D]
C1: [B1,D1]
D: [C,E]
D1: [C1,E1]
E: [D,F]
E1: [D1,F1]
F: [E,G]
F1: [E1,G1]
G: [F,H]
G1: [F1,H1]
H: [G,I]
H1: [G1,I1]
I: [H,J]
I1: [H1,J1]
J: [I,K]
J1: [I1,K1]
K: [J,L]
K1: [J1,L1]
L: [K,M]
L1: [K1,M1]
M: [L,N]
M1: [L1,N1]
N: [M,O]
N1: [M1,O1]
O: [N,P]
O1: [N1,P1]
P: [O,Q]
P1: [O1,Q1]
Q: [P,R]
Q1: [P1,R1]
R: [Q,S]
R1: [Q1,S1]
S: [R,T]
S1: [R1,T1]
T: [S,U]
T1: [S1,U1]
U: [T,V]
U1: [T1,V1]
V: [U,W]
V1: [U1,W1]
W: [V,X]
W1: [V1,X1]
X: [W,Y]
X1: [W1,Y1]
Y: [X,Z]
Y1: [X1,Z1]
Z: [A1,Y]
Z1: [Y1]
Total time taken for discovery for machine
L: 1.155s
There are 52 machines in this topology. The following are the machines and their neighbors discovered from machine I:
A: [B]
A1: [B1,Z]
B: [A,C]
B1: [A1,C1]
C: [B,D]
C1: [B1,D1]
D: [C,E]
D1: [C1,E1]
E: [D,F]
E1: [D1,F1]
F: [E,G]
F1: [E1,G1]
G: [F,H]
G1: [F1,H1]
H: [G,I]
H1: [G1,I1]
I: [H,J]
I1: [H1,J1]
J: [I,K]
J1: [I1,K1]
K: [J,L]
K1: [J1,L1]
L: [K,M]
L1: [K1,M1]
M: [L,N]
M1: [L1,N1]
N: [M,O]
N1: [M1,O1]
O: [N,P]
O1: [N1,P1]
P: [O,Q]
P1: [O1,Q1]
Q: [P,R]
Q1: [P1,R1]
R: [Q,S]
R1: [Q1,S1]
S: [R,T]
S1: [R1,T1]
T: [S,U]
T1: [S1,U1]
U: [T,V]
U1: [T1,V1]
V: [U,W]
V1: [U1,W1]
W: [V,X]
W1: [V1,X1]
X: [W,Y]
X1: [W1,Y1]
Y: [X,Z]
Y1: [X1,Z1]
Z: [A1,Y]
Z1: [Y1]
Total time taken for discovery for machine
I: 1.182s
There are 52 machines in this topology. The following are the machines and their neighbors discovered from machine F:
A: [B]
A1: [B1,Z]
B: [A,C]
B1: [A1,C1]
C: [B,D]
C1: [B1,D1]
D: [C,E]
D1: [C1,E1]
E: [D,F]
E1: [D1,F1]
F: [E,G]
F1: [E1,G1]
G: [F,H]
G1: [F1,H1]
H: [G,I]
H1: [G1,I1]
I: [H,J]
I1: [H1,J1]
J: [I,K]
J1: [I1,K1]
K: [J,L]
K1: [J1,L1]
L: [K,M]
L1: [K1,M1]
M: [L,N]
M1: [L1,N1]
N: [M,O]
N1: [M1,O1]
O: [N,P]
O1: [N1,P1]
P: [O,Q]
P1: [O1,Q1]
Q: [P,R]
Q1: [P1,R1]
R: [Q,S]
R1: [Q1,S1]
S: [R,T]
S1: [R1,T1]
T: [S,U]
T1: [S1,U1]
U: [T,V]
U1: [T1,V1]
V: [U,W]
V1: [U1,W1]
W: [V,X]
W1: [V1,X1]
X: [W,Y]
X1: [W1,Y1]
Y: [X,Z]
Y1: [X1,Z1]
Z: [A1,Y]
Z1: [Y1]
Total time taken for discovery for machine
F: 1.213s
There are 52 machines in this topology. The following are the machines and their neighbors discovered from machine B:
A: [B]
A1: [B1,Z]
B: [A,C]
B1: [A1,C1]
C: [B,D]
C1: [B1,D1]
D: [C,E]
D1: [C1,E1]
E: [D,F]
E1: [D1,F1]
F: [E,G]
F1: [E1,G1]
G: [F,H]
G1: [F1,H1]
H: [G,I]
H1: [G1,I1]
I: [H,J]
I1: [H1,J1]
J: [I,K]
J1: [I1,K1]
K: [J,L]
K1: [J1,L1]
L: [K,M]
L1: [K1,M1]
M: [L,N]
M1: [L1,N1]
N: [M,O]
N1: [M1,O1]
O: [N,P]
O1: [N1,P1]
P: [O,Q]
P1: [O1,Q1]
Q: [P,R]
Q1: [P1,R1]
R: [Q,S]
R1: [Q1,S1]
S: [R,T]
S1: [R1,T1]
T: [S,U]
T1: [S1,U1]
U: [T,V]
U1: [T1,V1]
V: [U,W]
V1: [U1,W1]
W: [V,X]
W1: [V1,X1]
X: [W,Y]
X1: [W1,Y1]
Y: [X,Z]
Y1: [X1,Z1]
Z: [A1,Y]
Z1: [Y1]
Total time taken for discovery for machine
B: 1.240s
There are 52 machines in this topology. The following are the machines and their neighbors discovered from machine A:
A: [B]
A1: [B1,Z]
B: [A,C]
B1: [A1,C1]
C: [B,D]
C1: [B1,D1]
D: [C,E]
D1: [C1,E1]
E: [D,F]
E1: [D1,F1]
F: [E,G]
F1: [E1,G1]
G: [F,H]
G1: [F1,H1]
H: [G,I]
H1: [G1,I1]
I: [H,J]
I1: [H1,J1]
J: [I,K]
J1: [I1,K1]
K: [J,L]
K1: [J1,L1]
L: [K,M]
L1: [K1,M1]
M: [L,N]
M1: [L1,N1]
N: [M,O]
N1: [M1,O1]
O: [N,P]
O1: [N1,P1]
P: [O,Q]
P1: [O1,Q1]
Q: [P,R]
Q1: [P1,R1]
R: [Q,S]
R1: [Q1,S1]
S: [R,T]
S1: [R1,T1]
T: [S,U]
T1: [S1,U1]
U: [T,V]
U1: [T1,V1]
V: [U,W]
V1: [U1,W1]
W: [V,X]
W1: [V1,X1]
X: [W,Y]
X1: [W1,Y1]
Y: [X,Z]
Y1: [X1,Z1]
Z: [A1,Y]
Z1: [Y1]
Total time taken for discovery for machine
A: 1.263s
There are 52 machines in this topology. The following are the machines and their neighbors discovered from machine K:
A: [B]
A1: [B1,Z]
B: [A,C]
B1: [A1,C1]
C: [B,D]
C1: [B1,D1]
D: [C,E]
D1: [C1,E1]
E: [D,F]
E1: [D1,F1]
F: [E,G]
F1: [E1,G1]
G: [F,H]
G1: [F1,H1]
H: [G,I]
H1: [G1,I1]
I: [H,J]
I1: [H1,J1]
J: [I,K]
J1: [I1,K1]
K: [J,L]
K1: [J1,L1]
L: [K,M]
L1: [K1,M1]
M: [L,N]
M1: [L1,N1]
N: [M,O]
N1: [M1,O1]
O: [N,P]
O1: [N1,P1]
P: [O,Q]
P1: [O1,Q1]
Q: [P,R]
Q1: [P1,R1]
R: [Q,S]
R1: [Q1,S1]
S: [R,T]
S1: [R1,T1]
T: [S,U]
T1: [S1,U1]
U: [T,V]
U1: [T1,V1]
V: [U,W]
V1: [U1,W1]
W: [V,X]
W1: [V1,X1]
X: [W,Y]
X1: [W1,Y1]
Y: [X,Z]
Y1: [X1,Z1]
Z: [A1,Y]
Z1: [Y1]
Total time taken for discovery for machine
K: 1.287s
There are 52 machines in this topology. The following are the machines and their neighbors discovered from machine H:
A: [B]
A1: [B1,Z]
B: [A,C]
B1: [A1,C1]
C: [B,D]
C1: [B1,D1]
D: [C,E]
D1: [C1,E1]
E: [D,F]
E1: [D1,F1]
F: [E,G]
F1: [E1,G1]
G: [F,H]
G1: [F1,H1]
H: [G,I]
H1: [G1,I1]
I: [H,J]
I1: [H1,J1]
J: [I,K]
J1: [I1,K1]
K: [J,L]
K1: [J1,L1]
L: [K,M]
L1: [K1,M1]
M: [L,N]
M1: [L1,N1]
N: [M,O]
N1: [M1,O1]
O: [N,P]
O1: [N1,P1]
P: [O,Q]
P1: [O1,Q1]
Q: [P,R]
Q1: [P1,R1]
R: [Q,S]
R1: [Q1,S1]
S: [R,T]
S1: [R1,T1]
T: [S,U]
T1: [S1,U1]
U: [T,V]
U1: [T1,V1]
V: [U,W]
V1: [U1,W1]
W: [V,X]
W1: [V1,X1]
X: [W,Y]
X1: [W1,Y1]
Y: [X,Z]
Y1: [X1,Z1]
Z: [A1,Y]
Z1: [Y1]
Total time taken for discovery for machine
H: 1.309s
There are 52 machines in this topology. The following are the machines and their neighbors discovered from machine C:
A: [B]
A1: [B1,Z]
B: [A,C]
B1: [A1,C1]
C: [B,D]
C1: [B1,D1]
D: [C,E]
D1: [C1,E1]
E: [D,F]
E1: [D1,F1]
F: [E,G]
F1: [E1,G1]
G: [F,H]
G1: [F1,H1]
H: [G,I]
H1: [G1,I1]
I: [H,J]
I1: [H1,J1]
J: [I,K]
J1: [I1,K1]
K: [J,L]
K1: [J1,L1]
L: [K,M]
L1: [K1,M1]
M: [L,N]
M1: [L1,N1]
N: [M,O]
N1: [M1,O1]
O: [N,P]
O1: [N1,P1]
P: [O,Q]
P1: [O1,Q1]
Q: [P,R]
Q1: [P1,R1]
R: [Q,S]
R1: [Q1,S1]
S: [R,T]
S1: [R1,T1]
T: [S,U]
T1: [S1,U1]
U: [T,V]
U1: [T1,V1]
V: [U,W]
V1: [U1,W1]
W: [V,X]
W1: [V1,X1]
X: [W,Y]
X1: [W1,Y1]
Y: [X,Z]
Y1: [X1,Z1]
Z: [A1,Y]
Z1: [Y1]
Total time taken for discovery for machine
C: 1.336s
There are 52 machines in this topology. The following are the machines and their neighbors discovered from machine M:
A: [B]
A1: [B1,Z]
B: [A,C]
B1: [A1,C1]
C: [B,D]
C1: [B1,D1]
D: [C,E]
D1: [C1,E1]
E: [D,F]
E1: [D1,F1]
F: [E,G]
F1: [E1,G1]
G: [F,H]
G1: [F1,H1]
H: [G,I]
H1: [G1,I1]
I: [H,J]
I1: [H1,J1]
J: [I,K]
J1: [I1,K1]
K: [J,L]
K1: [J1,L1]
L: [K,M]
L1: [K1,M1]
M: [L,N]
M1: [L1,N1]
N: [M,O]
N1: [M1,O1]
O: [N,P]
O1: [N1,P1]
P: [O,Q]
P1: [O1,Q1]
Q: [P,R]
Q1: [P1,R1]
R: [Q,S]
R1: [Q1,S1]
S: [R,T]
S1: [R1,T1]
T: [S,U]
T1: [S1,U1]
U: [T,V]
U1: [T1,V1]
V: [U,W]
V1: [U1,W1]
W: [V,X]
W1: [V1,X1]
X: [W,Y]
X1: [W1,Y1]
Y: [X,Z]
Y1: [X1,Z1]
Z: [A1,Y]
Z1: [Y1]
Total time taken for discovery for machine
M: 1.362s
There are 52 machines in this topology. The following are the machines and their neighbors discovered from machine J:
A: [B]
A1: [B1,Z]
B: [A,C]
B1: [A1,C1]
C: [B,D]
C1: [B1,D1]
D: [C,E]
D1: [C1,E1]
E: [D,F]
E1: [D1,F1]
F: [E,G]
F1: [E1,G1]
G: [F,H]
G1: [F1,H1]
H: [G,I]
H1: [G1,I1]
I: [H,J]
I1: [H1,J1]
J: [I,K]
J1: [I1,K1]
K: [J,L]
K1: [J1,L1]
L: [K,M]
L1: [K1,M1]
M: [L,N]
M1: [L1,N1]
N: [M,O]
N1: [M1,O1]
O: [N,P]
O1: [N1,P1]
P: [O,Q]
P1: [O1,Q1]
Q: [P,R]
Q1: [P1,R1]
R: [Q,S]
R1: [Q1,S1]
S: [R,T]
S1: [R1,T1]
T: [S,U]
T1: [S1,U1]
U: [T,V]
U1: [T1,V1]
V: [U,W]
V1: [U1,W1]
W: [V,X]
W1: [V1,X1]
X: [W,Y]
X1: [W1,Y1]
Y: [X,Z]
Y1: [X1,Z1]
Z: [A1,Y]
Z1: [Y1]
Total time taken for discovery for machine
J: 1.393s
There are 52 machines in this topology. The following are the machines and their neighbors discovered from machine D:
A: [B]
A1: [B1,Z]
B: [A,C]
B1: [A1,C1]
C: [B,D]
C1: [B1,D1]
D: [C,E]
D1: [C1,E1]
E: [D,F]
E1: [D1,F1]
F: [E,G]
F1: [E1,G1]
G: [F,H]
G1: [F1,H1]
H: [G,I]
H1: [G1,I1]
I: [H,J]
I1: [H1,J1]
J: [I,K]
J1: [I1,K1]
K: [J,L]
K1: [J1,L1]
L: [K,M]
L1: [K1,M1]
M: [L,N]
M1: [L1,N1]
N: [M,O]
N1: [M1,O1]
O: [N,P]
O1: [N1,P1]
P: [O,Q]
P1: [O1,Q1]
Q: [P,R]
Q1: [P1,R1]
R: [Q,S]
R1: [Q1,S1]
S: [R,T]
S1: [R1,T1]
T: [S,U]
T1: [S1,U1]
U: [T,V]
U1: [T1,V1]
V: [U,W]
V1: [U1,W1]
W: [V,X]
W1: [V1,X1]
X: [W,Y]
X1: [W1,Y1]
Y: [X,Z]
Y1: [X1,Z1]
Z: [A1,Y]
Z1: [Y1]
Total time taken for discovery for machine
D: 1.414s
There are 52 machines in this topology. The following are the machines and their neighbors discovered from machine Z:
A: [B]
A1: [B1,Z]
B: [A,C]
B1: [A1,C1]
C: [B,D]
C1: [B1,D1]
D: [C,E]
D1: [C1,E1]
E: [D,F]
E1: [D1,F1]
F: [E,G]
F1: [E1,G1]
G: [F,H]
G1: [F1,H1]
H: [G,I]
H1: [G1,I1]
I: [H,J]
I1: [H1,J1]
J: [I,K]
J1: [I1,K1]
K: [J,L]
K1: [J1,L1]
L: [K,M]
L1: [K1,M1]
M: [L,N]
M1: [L1,N1]
N: [M,O]
N1: [M1,O1]
O: [N,P]
O1: [N1,P1]
P: [O,Q]
P1: [O1,Q1]
Q: [P,R]
Q1: [P1,R1]
R: [Q,S]
R1: [Q1,S1]
S: [R,T]
S1: [R1,T1]
T: [S,U]
T1: [S1,U1]
U: [T,V]
U1: [T1,V1]
V: [U,W]
V1: [U1,W1]
W: [V,X]
W1: [V1,X1]
X: [W,Y]
X1: [W1,Y1]
Y: [X,Z]
Y1: [X1,Z1]
Z: [A1,Y]
Z1: [Y1]
Total time taken for discovery for machine
Z: 1.051s
There are 52 machines in this topology. The following are the machines and their neighbors discovered from machine Y:
A: [B]
A1: [B1,Z]
B: [A,C]
B1: [A1,C1]
C: [B,D]
C1: [B1,D1]
D: [C,E]
D1: [C1,E1]
E: [D,F]
E1: [D1,F1]
F: [E,G]
F1: [E1,G1]
G: [F,H]
G1: [F1,H1]
H: [G,I]
H1: [G1,I1]
I: [H,J]
I1: [H1,J1]
J: [I,K]
J1: [I1,K1]
K: [J,L]
K1: [J1,L1]
L: [K,M]
L1: [K1,M1]
M: [L,N]
M1: [L1,N1]
N: [M,O]
N1: [M1,O1]
O: [N,P]
O1: [N1,P1]
P: [O,Q]
P1: [O1,Q1]
Q: [P,R]
Q1: [P1,R1]
R: [Q,S]
R1: [Q1,S1]
S: [R,T]
S1: [R1,T1]
T: [S,U]
T1: [S1,U1]
U: [T,V]
U1: [T1,V1]
V: [U,W]
V1: [U1,W1]
W: [V,X]
W1: [V1,X1]
X: [W,Y]
X1: [W1,Y1]
Y: [X,Z]
Y1: [X1,Z1]
Z: [A1,Y]
Z1: [Y1]
Total time taken for discovery for machine
Y: 1.076s
There are 52 machines in this topology. The following are the machines and their neighbors discovered from machine S:
A: [B]
A1: [B1,Z]
B: [A,C]
B1: [A1,C1]
C: [B,D]
C1: [B1,D1]
D: [C,E]
D1: [C1,E1]
E: [D,F]
E1: [D1,F1]
F: [E,G]
F1: [E1,G1]
G: [F,H]
G1: [F1,H1]
H: [G,I]
H1: [G1,I1]
I: [H,J]
I1: [H1,J1]
J: [I,K]
J1: [I1,K1]
K: [J,L]
K1: [J1,L1]
L: [K,M]
L1: [K1,M1]
M: [L,N]
M1: [L1,N1]
N: [M,O]
N1: [M1,O1]
O: [N,P]
O1: [N1,P1]
P: [O,Q]
P1: [O1,Q1]
Q: [P,R]
Q1: [P1,R1]
R: [Q,S]
R1: [Q1,S1]
S: [R,T]
S1: [R1,T1]
T: [S,U]
T1: [S1,U1]
U: [T,V]
U1: [T1,V1]
V: [U,W]
V1: [U1,W1]
W: [V,X]
W1: [V1,X1]
X: [W,Y]
X1: [W1,Y1]
Y: [X,Z]
Y1: [X1,Z1]
Z: [A1,Y]
Z1: [Y1]
Total time taken for discovery for machine
S: 1.102s
There are 52 machines in this topology. The following are the machines and their neighbors discovered from machine P:
A: [B]
A1: [B1,Z]
B: [A,C]
B1: [A1,C1]
C: [B,D]
C1: [B1,D1]
D: [C,E]
D1: [C1,E1]
E: [D,F]
E1: [D1,F1]
F: [E,G]
F1: [E1,G1]
G: [F,H]
G1: [F1,H1]
H: [G,I]
H1: [G1,I1]
I: [H,J]
I1: [H1,J1]
J: [I,K]
J1: [I1,K1]
K: [J,L]
K1: [J1,L1]
L: [K,M]
L1: [K1,M1]
M: [L,N]
M1: [L1,N1]
N: [M,O]
N1: [M1,O1]
O: [N,P]
O1: [N1,P1]
P: [O,Q]
P1: [O1,Q1]
Q: [P,R]
Q1: [P1,R1]
R: [Q,S]
R1: [Q1,S1]
S: [R,T]
S1: [R1,T1]
T: [S,U]
T1: [S1,U1]
U: [T,V]
U1: [T1,V1]
V: [U,W]
V1: [U1,W1]
W: [V,X]
W1: [V1,X1]
X: [W,Y]
X1: [W1,Y1]
Y: [X,Z]
Y1: [X1,Z1]
Z: [A1,Y]
Z1: [Y1]
Total time taken for discovery for machine
P: 1.121s
There are 52 machines in this topology. The following are the machines and their neighbors discovered from machine R:
A: [B]
A1: [B1,Z]
B: [A,C]
B1: [A1,C1]
C: [B,D]
C1: [B1,D1]
D: [C,E]
D1: [C1,E1]
E: [D,F]
E1: [D1,F1]
F: [E,G]
F1: [E1,G1]
G: [F,H]
G1: [F1,H1]
H: [G,I]
H1: [G1,I1]
I: [H,J]
I1: [H1,J1]
J: [I,K]
J1: [I1,K1]
K: [J,L]
K1: [J1,L1]
L: [K,M]
L1: [K1,M1]
M: [L,N]
M1: [L1,N1]
N: [M,O]
N1: [M1,O1]
O: [N,P]
O1: [N1,P1]
P: [O,Q]
P1: [O1,Q1]
Q: [P,R]
Q1: [P1,R1]
R: [Q,S]
R1: [Q1,S1]
S: [R,T]
S1: [R1,T1]
T: [S,U]
T1: [S1,U1]
U: [T,V]
U1: [T1,V1]
V: [U,W]
V1: [U1,W1]
W: [V,X]
W1: [V1,X1]
X: [W,Y]
X1: [W1,Y1]
Y: [X,Z]
Y1: [X1,Z1]
Z: [A1,Y]
Z1: [Y1]
Total time taken for discovery for machine
R: 1.146s
There are 52 machines in this topology. The following are the machines and their neighbors discovered from machine W:
A: [B]
A1: [B1,Z]
B: [A,C]
B1: [A1,C1]
C: [B,D]
C1: [B1,D1]
D: [C,E]
D1: [C1,E1]
E: [D,F]
E1: [D1,F1]
F: [E,G]
F1: [E1,G1]
G: [F,H]
G1: [F1,H1]
H: [G,I]
H1: [G1,I1]
I: [H,J]
I1: [H1,J1]
J: [I,K]
J1: [I1,K1]
K: [J,L]
K1: [J1,L1]
L: [K,M]
L1: [K1,M1]
M: [L,N]
M1: [L1,N1]
N: [M,O]
N1: [M1,O1]
O: [N,P]
O1: [N1,P1]
P: [O,Q]
P1: [O1,Q1]
Q: [P,R]
Q1: [P1,R1]
R: [Q,S]
R1: [Q1,S1]
S: [R,T]
S1: [R1,T1]
T: [S,U]
T1: [S1,U1]
U: [T,V]
U1: [T1,V1]
V: [U,W]
V1: [U1,W1]
W: [V,X]
W1: [V1,X1]
X: [W,Y]
X1: [W1,Y1]
Y: [X,Z]
Y1: [X1,Z1]
Z: [A1,Y]
Z1: [Y1]
Total time taken for discovery for machine
W: 1.171s
There are 52 machines in this topology. The following are the machines and their neighbors discovered from machine T:
A: [B]
A1: [B1,Z]
B: [A,C]
B1: [A1,C1]
C: [B,D]
C1: [B1,D1]
D: [C,E]
D1: [C1,E1]
E: [D,F]
E1: [D1,F1]
F: [E,G]
F1: [E1,G1]
G: [F,H]
G1: [F1,H1]
H: [G,I]
H1: [G1,I1]
I: [H,J]
I1: [H1,J1]
J: [I,K]
J1: [I1,K1]
K: [J,L]
K1: [J1,L1]
L: [K,M]
L1: [K1,M1]
M: [L,N]
M1: [L1,N1]
N: [M,O]
N1: [M1,O1]
O: [N,P]
O1: [N1,P1]
P: [O,Q]
P1: [O1,Q1]
Q: [P,R]
Q1: [P1,R1]
R: [Q,S]
R1: [Q1,S1]
S: [R,T]
S1: [R1,T1]
T: [S,U]
T1: [S1,U1]
U: [T,V]
U1: [T1,V1]
V: [U,W]
V1: [U1,W1]
W: [V,X]
W1: [V1,X1]
X: [W,Y]
X1: [W1,Y1]
Y: [X,Z]
Y1: [X1,Z1]
Z: [A1,Y]
Z1: [Y1]
Total time taken for discovery for machine
T: 1.186s
There are 52 machines in this topology. The following are the machines and their neighbors discovered from machine Q:
A: [B]
A1: [B1,Z]
B: [A,C]
B1: [A1,C1]
C: [B,D]
C1: [B1,D1]
D: [C,E]
D1: [C1,E1]
E: [D,F]
E1: [D1,F1]
F: [E,G]
F1: [E1,G1]
G: [F,H]
G1: [F1,H1]
H: [G,I]
H1: [G1,I1]
I: [H,J]
I1: [H1,J1]
J: [I,K]
J1: [I1,K1]
K: [J,L]
K1: [J1,L1]
L: [K,M]
L1: [K1,M1]
M: [L,N]
M1: [L1,N1]
N: [M,O]
N1: [M1,O1]
O: [N,P]
O1: [N1,P1]
P: [O,Q]
P1: [O1,Q1]
Q: [P,R]
Q1: [P1,R1]
R: [Q,S]
R1: [Q1,S1]
S: [R,T]
S1: [R1,T1]
T: [S,U]
T1: [S1,U1]
U: [T,V]
U1: [T1,V1]
V: [U,W]
V1: [U1,W1]
W: [V,X]
W1: [V1,X1]
X: [W,Y]
X1: [W1,Y1]
Y: [X,Z]
Y1: [X1,Z1]
Z: [A1,Y]
Z1: [Y1]
Total time taken for discovery for machine
Q: 1.208s
There are 52 machines in this topology. The following are the machines and their neighbors discovered from machine B1:
A: [B]
A1: [B1,Z]
B: [A,C]
B1: [A1,C1]
C: [B,D]
C1: [B1,D1]
D: [C,E]
D1: [C1,E1]
E: [D,F]
E1: [D1,F1]
F: [E,G]
F1: [E1,G1]
G: [F,H]
G1: [F1,H1]
H: [G,I]
H1: [G1,I1]
I: [H,J]
I1: [H1,J1]
J: [I,K]
J1: [I1,K1]
K: [J,L]
K1: [J1,L1]
L: [K,M]
L1: [K1,M1]
M: [L,N]
M1: [L1,N1]
N: [M,O]
N1: [M1,O1]
O: [N,P]
O1: [N1,P1]
P: [O,Q]
P1: [O1,Q1]
Q: [P,R]
Q1: [P1,R1]
R: [Q,S]
R1: [Q1,S1]
S: [R,T]
S1: [R1,T1]
T: [S,U]
T1: [S1,U1]
U: [T,V]
U1: [T1,V1]
V: [U,W]
V1: [U1,W1]
W: [V,X]
W1: [V1,X1]
X: [W,Y]
X1: [W1,Y1]
Y: [X,Z]
Y1: [X1,Z1]
Z: [A1,Y]
Z1: [Y1]
Total time taken for discovery for machine
B1: 1.226s
There are 52 machines in this topology. The following are the machines and their neighbors discovered from machine D1:
A: [B]
A1: [B1,Z]
B: [A,C]
B1: [A1,C1]
C: [B,D]
C1: [B1,D1]
D: [C,E]
D1: [C1,E1]
E: [D,F]
E1: [D1,F1]
F: [E,G]
F1: [E1,G1]
G: [F,H]
G1: [F1,H1]
H: [G,I]
H1: [G1,I1]
I: [H,J]
I1: [H1,J1]
J: [I,K]
J1: [I1,K1]
K: [J,L]
K1: [J1,L1]
L: [K,M]
L1: [K1,M1]
M: [L,N]
M1: [L1,N1]
N: [M,O]
N1: [M1,O1]
O: [N,P]
O1: [N1,P1]
P: [O,Q]
P1: [O1,Q1]
Q: [P,R]
Q1: [P1,R1]
R: [Q,S]
R1: [Q1,S1]
S: [R,T]
S1: [R1,T1]
T: [S,U]
T1: [S1,U1]
U: [T,V]
U1: [T1,V1]
V: [U,W]
V1: [U1,W1]
W: [V,X]
W1: [V1,X1]
X: [W,Y]
X1: [W1,Y1]
Y: [X,Z]
Y1: [X1,Z1]
Z: [A1,Y]
Z1: [Y1]
Total time taken for discovery for machine
D1: 1.249s
There are 52 machines in this topology. The following are the machines and their neighbors discovered from machine A1:
A: [B]
A1: [B1,Z]
B: [A,C]
B1: [A1,C1]
C: [B,D]
C1: [B1,D1]
D: [C,E]
D1: [C1,E1]
E: [D,F]
E1: [D1,F1]
F: [E,G]
F1: [E1,G1]
G: [F,H]
G1: [F1,H1]
H: [G,I]
H1: [G1,I1]
I: [H,J]
I1: [H1,J1]
J: [I,K]
J1: [I1,K1]
K: [J,L]
K1: [J1,L1]
L: [K,M]
L1: [K1,M1]
M: [L,N]
M1: [L1,N1]
N: [M,O]
N1: [M1,O1]
O: [N,P]
O1: [N1,P1]
P: [O,Q]
P1: [O1,Q1]
Q: [P,R]
Q1: [P1,R1]
R: [Q,S]
R1: [Q1,S1]
S: [R,T]
S1: [R1,T1]
T: [S,U]
T1: [S1,U1]
U: [T,V]
U1: [T1,V1]
V: [U,W]
V1: [U1,W1]
W: [V,X]
W1: [V1,X1]
X: [W,Y]
X1: [W1,Y1]
Y: [X,Z]
Y1: [X1,Z1]
Z: [A1,Y]
Z1: [Y1]
Total time taken for discovery for machine
A1: 1.265s
There are 52 machines in this topology. The following are the machines and their neighbors discovered from machine X:
A: [B]
A1: [B1,Z]
B: [A,C]
B1: [A1,C1]
C: [B,D]
C1: [B1,D1]
D: [C,E]
D1: [C1,E1]
E: [D,F]
E1: [D1,F1]
F: [E,G]
F1: [E1,G1]
G: [F,H]
G1: [F1,H1]
H: [G,I]
H1: [G1,I1]
I: [H,J]
I1: [H1,J1]
J: [I,K]
J1: [I1,K1]
K: [J,L]
K1: [J1,L1]
L: [K,M]
L1: [K1,M1]
M: [L,N]
M1: [L1,N1]
N: [M,O]
N1: [M1,O1]
O: [N,P]
O1: [N1,P1]
P: [O,Q]
P1: [O1,Q1]
Q: [P,R]
Q1: [P1,R1]
R: [Q,S]
R1: [Q1,S1]
S: [R,T]
S1: [R1,T1]
T: [S,U]
T1: [S1,U1]
U: [T,V]
U1: [T1,V1]
V: [U,W]
V1: [U1,W1]
W: [V,X]
W1: [V1,X1]
X: [W,Y]
X1: [W1,Y1]
Y: [X,Z]
Y1: [X1,Z1]
Z: [A1,Y]
Z1: [Y1]
Total time taken for discovery for machine
X: 1.280s
There are 52 machines in this topology. The following are the machines and their neighbors discovered from machine V:
A: [B]
A1: [B1,Z]
B: [A,C]
B1: [A1,C1]
C: [B,D]
C1: [B1,D1]
D: [C,E]
D1: [C1,E1]
E: [D,F]
E1: [D1,F1]
F: [E,G]
F1: [E1,G1]
G: [F,H]
G1: [F1,H1]
H: [G,I]
H1: [G1,I1]
I: [H,J]
I1: [H1,J1]
J: [I,K]
J1: [I1,K1]
K: [J,L]
K1: [J1,L1]
L: [K,M]
L1: [K1,M1]
M: [L,N]
M1: [L1,N1]
N: [M,O]
N1: [M1,O1]
O: [N,P]
O1: [N1,P1]
P: [O,Q]
P1: [O1,Q1]
Q: [P,R]
Q1: [P1,R1]
R: [Q,S]
R1: [Q1,S1]
S: [R,T]
S1: [R1,T1]
T: [S,U]
T1: [S1,U1]
U: [T,V]
U1: [T1,V1]
V: [U,W]
V1: [U1,W1]
W: [V,X]
W1: [V1,X1]
X: [W,Y]
X1: [W1,Y1]
Y: [X,Z]
Y1: [X1,Z1]
Z: [A1,Y]
Z1: [Y1]
Total time taken for discovery for machine
V: 1.304s
There are 52 machines in this topology. The following are the machines and their neighbors discovered from machine U:
A: [B]
A1: [B1,Z]
B: [A,C]
B1: [A1,C1]
C: [B,D]
C1: [B1,D1]
D: [C,E]
D1: [C1,E1]
E: [D,F]
E1: [D1,F1]
F: [E,G]
F1: [E1,G1]
G: [F,H]
G1: [F1,H1]
H: [G,I]
H1: [G1,I1]
I: [H,J]
I1: [H1,J1]
J: [I,K]
J1: [I1,K1]
K: [J,L]
K1: [J1,L1]
L: [K,M]
L1: [K1,M1]
M: [L,N]
M1: [L1,N1]
N: [M,O]
N1: [M1,O1]
O: [N,P]
O1: [N1,P1]
P: [O,Q]
P1: [O1,Q1]
Q: [P,R]
Q1: [P1,R1]
R: [Q,S]
R1: [Q1,S1]
S: [R,T]
S1: [R1,T1]
T: [S,U]
T1: [S1,U1]
U: [T,V]
U1: [T1,V1]
V: [U,W]
V1: [U1,W1]
W: [V,X]
W1: [V1,X1]
X: [W,Y]
X1: [W1,Y1]
Y: [X,Z]
Y1: [X1,Z1]
Z: [A1,Y]
Z1: [Y1]
Total time taken for discovery for machine
U: 1.321s
There are 52 machines in this topology. The following are the machines and their neighbors discovered from machine C1:
A: [B]
A1: [B1,Z]
B: [A,C]
B1: [A1,C1]
C: [B,D]
C1: [B1,D1]
D: [C,E]
D1: [C1,E1]
E: [D,F]
E1: [D1,F1]
F: [E,G]
F1: [E1,G1]
G: [F,H]
G1: [F1,H1]
H: [G,I]
H1: [G1,I1]
I: [H,J]
I1: [H1,J1]
J: [I,K]
J1: [I1,K1]
K: [J,L]
K1: [J1,L1]
L: [K,M]
L1: [K1,M1]
M: [L,N]
M1: [L1,N1]
N: [M,O]
N1: [M1,O1]
O: [N,P]
O1: [N1,P1]
P: [O,Q]
P1: [O1,Q1]
Q: [P,R]
Q1: [P1,R1]
R: [Q,S]
R1: [Q1,S1]
S: [R,T]
S1: [R1,T1]
T: [S,U]
T1: [S1,U1]
U: [T,V]
U1: [T1,V1]
V: [U,W]
V1: [U1,W1]
W: [V,X]
W1: [V1,X1]
X: [W,Y]
X1: [W1,Y1]
Y: [X,Z]
Y1: [X1,Z1]
Z: [A1,Y]
Z1: [Y1]
Total time taken for discovery for machine
C1: 1.346s
There are 52 machines in this topology. The following are the machines and their neighbors discovered from machine U1:
A: [B]
A1: [B1,Z]
B: [A,C]
B1: [A1,C1]
C: [B,D]
C1: [B1,D1]
D: [C,E]
D1: [C1,E1]
E: [D,F]
E1: [D1,F1]
F: [E,G]
F1: [E1,G1]
G: [F,H]
G1: [F1,H1]
H: [G,I]
H1: [G1,I1]
I: [H,J]
I1: [H1,J1]
J: [I,K]
J1: [I1,K1]
K: [J,L]
K1: [J1,L1]
L: [K,M]
L1: [K1,M1]
M: [L,N]
M1: [L1,N1]
N: [M,O]
N1: [M1,O1]
O: [N,P]
O1: [N1,P1]
P: [O,Q]
P1: [O1,Q1]
Q: [P,R]
Q1: [P1,R1]
R: [Q,S]
R1: [Q1,S1]
S: [R,T]
S1: [R1,T1]
T: [S,U]
T1: [S1,U1]
U: [T,V]
U1: [T1,V1]
V: [U,W]
V1: [U1,W1]
W: [V,X]
W1: [V1,X1]
X: [W,Y]
X1: [W1,Y1]
Y: [X,Z]
Y1: [X1,Z1]
Z: [A1,Y]
Z1: [Y1]
Total time taken for discovery for machine
U1: 1.159s
There are 52 machines in this topology. The following are the machines and their neighbors discovered from machine J1:
A: [B]
A1: [B1,Z]
B: [A,C]
B1: [A1,C1]
C: [B,D]
C1: [B1,D1]
D: [C,E]
D1: [C1,E1]
E: [D,F]
E1: [D1,F1]
F: [E,G]
F1: [E1,G1]
G: [F,H]
G1: [F1,H1]
H: [G,I]
H1: [G1,I1]
I: [H,J]
I1: [H1,J1]
J: [I,K]
J1: [I1,K1]
K: [J,L]
K1: [J1,L1]
L: [K,M]
L1: [K1,M1]
M: [L,N]
M1: [L1,N1]
N: [M,O]
N1: [M1,O1]
O: [N,P]
O1: [N1,P1]
P: [O,Q]
P1: [O1,Q1]
Q: [P,R]
Q1: [P1,R1]
R: [Q,S]
R1: [Q1,S1]
S: [R,T]
S1: [R1,T1]
T: [S,U]
T1: [S1,U1]
U: [T,V]
U1: [T1,V1]
V: [U,W]
V1: [U1,W1]
W: [V,X]
W1: [V1,X1]
X: [W,Y]
X1: [W1,Y1]
Y: [X,Z]
Y1: [X1,Z1]
Z: [A1,Y]
Z1: [Y1]
Total time taken for discovery for machine
J1: 1.255s
There are 52 machines in this topology. The following are the machines and their neighbors discovered from machine I1:
A: [B]
A1: [B1,Z]
B: [A,C]
B1: [A1,C1]
C: [B,D]
C1: [B1,D1]
D: [C,E]
D1: [C1,E1]
E: [D,F]
E1: [D1,F1]
F: [E,G]
F1: [E1,G1]
G: [F,H]
G1: [F1,H1]
H: [G,I]
H1: [G1,I1]
I: [H,J]
I1: [H1,J1]
J: [I,K]
J1: [I1,K1]
K: [J,L]
K1: [J1,L1]
L: [K,M]
L1: [K1,M1]
M: [L,N]
M1: [L1,N1]
N: [M,O]
N1: [M1,O1]
O: [N,P]
O1: [N1,P1]
P: [O,Q]
P1: [O1,Q1]
Q: [P,R]
Q1: [P1,R1]
R: [Q,S]
R1: [Q1,S1]
S: [R,T]
S1: [R1,T1]
T: [S,U]
T1: [S1,U1]
U: [T,V]
U1: [T1,V1]
V: [U,W]
V1: [U1,W1]
W: [V,X]
W1: [V1,X1]
X: [W,Y]
X1: [W1,Y1]
Y: [X,Z]
Y1: [X1,Z1]
Z: [A1,Y]
Z1: [Y1]
Total time taken for discovery for machine
I1: 1.279s
There are 52 machines in this topology. The following are the machines and their neighbors discovered from machine G1:
A: [B]
A1: [B1,Z]
B: [A,C]
B1: [A1,C1]
C: [B,D]
C1: [B1,D1]
D: [C,E]
D1: [C1,E1]
E: [D,F]
E1: [D1,F1]
F: [E,G]
F1: [E1,G1]
G: [F,H]
G1: [F1,H1]
H: [G,I]
H1: [G1,I1]
I: [H,J]
I1: [H1,J1]
J: [I,K]
J1: [I1,K1]
K: [J,L]
K1: [J1,L1]
L: [K,M]
L1: [K1,M1]
M: [L,N]
M1: [L1,N1]
N: [M,O]
N1: [M1,O1]
O: [N,P]
O1: [N1,P1]
P: [O,Q]
P1: [O1,Q1]
Q: [P,R]
Q1: [P1,R1]
R: [Q,S]
R1: [Q1,S1]
S: [R,T]
S1: [R1,T1]
T: [S,U]
T1: [S1,U1]
U: [T,V]
U1: [T1,V1]
V: [U,W]
V1: [U1,W1]
W: [V,X]
W1: [V1,X1]
X: [W,Y]
X1: [W1,Y1]
Y: [X,Z]
Y1: [X1,Z1]
Z: [A1,Y]
Z1: [Y1]
Total time taken for discovery for machine
G1: 1.315s
There are 52 machines in this topology. The following are the machines and their neighbors discovered from machine F1:
A: [B]
A1: [B1,Z]
B: [A,C]
B1: [A1,C1]
C: [B,D]
C1: [B1,D1]
D: [C,E]
D1: [C1,E1]
E: [D,F]
E1: [D1,F1]
F: [E,G]
F1: [E1,G1]
G: [F,H]
G1: [F1,H1]
H: [G,I]
H1: [G1,I1]
I: [H,J]
I1: [H1,J1]
J: [I,K]
J1: [I1,K1]
K: [J,L]
K1: [J1,L1]
L: [K,M]
L1: [K1,M1]
M: [L,N]
M1: [L1,N1]
N: [M,O]
N1: [M1,O1]
O: [N,P]
O1: [N1,P1]
P: [O,Q]
P1: [O1,Q1]
Q: [P,R]
Q1: [P1,R1]
R: [Q,S]
R1: [Q1,S1]
S: [R,T]
S1: [R1,T1]
T: [S,U]
T1: [S1,U1]
U: [T,V]
U1: [T1,V1]
V: [U,W]
V1: [U1,W1]
W: [V,X]
W1: [V1,X1]
X: [W,Y]
X1: [W1,Y1]
Y: [X,Z]
Y1: [X1,Z1]
Z: [A1,Y]
Z1: [Y1]
Total time taken for discovery for machine
F1: 1.343s
There are 52 machines in this topology. The following are the machines and their neighbors discovered from machine E1:
A: [B]
A1: [B1,Z]
B: [A,C]
B1: [A1,C1]
C: [B,D]
C1: [B1,D1]
D: [C,E]
D1: [C1,E1]
E: [D,F]
E1: [D1,F1]
F: [E,G]
F1: [E1,G1]
G: [F,H]
G1: [F1,H1]
H: [G,I]
H1: [G1,I1]
I: [H,J]
I1: [H1,J1]
J: [I,K]
J1: [I1,K1]
K: [J,L]
K1: [J1,L1]
L: [K,M]
L1: [K1,M1]
M: [L,N]
M1: [L1,N1]
N: [M,O]
N1: [M1,O1]
O: [N,P]
O1: [N1,P1]
P: [O,Q]
P1: [O1,Q1]
Q: [P,R]
Q1: [P1,R1]
R: [Q,S]
R1: [Q1,S1]
S: [R,T]
S1: [R1,T1]
T: [S,U]
T1: [S1,U1]
U: [T,V]
U1: [T1,V1]
V: [U,W]
V1: [U1,W1]
W: [V,X]
W1: [V1,X1]
X: [W,Y]
X1: [W1,Y1]
Y: [X,Z]
Y1: [X1,Z1]
Z: [A1,Y]
Z1: [Y1]
Total time taken for discovery for machine
E1: 1.359s
There are 52 machines in this topology. The following are the machines and their neighbors discovered from machine M1:
A: [B]
A1: [B1,Z]
B: [A,C]
B1: [A1,C1]
C: [B,D]
C1: [B1,D1]
D: [C,E]
D1: [C1,E1]
E: [D,F]
E1: [D1,F1]
F: [E,G]
F1: [E1,G1]
G: [F,H]
G1: [F1,H1]
H: [G,I]
H1: [G1,I1]
I: [H,J]
I1: [H1,J1]
J: [I,K]
J1: [I1,K1]
K: [J,L]
K1: [J1,L1]
L: [K,M]
L1: [K1,M1]
M: [L,N]
M1: [L1,N1]
N: [M,O]
N1: [M1,O1]
O: [N,P]
O1: [N1,P1]
P: [O,Q]
P1: [O1,Q1]
Q: [P,R]
Q1: [P1,R1]
R: [Q,S]
R1: [Q1,S1]
S: [R,T]
S1: [R1,T1]
T: [S,U]
T1: [S1,U1]
U: [T,V]
U1: [T1,V1]
V: [U,W]
V1: [U1,W1]
W: [V,X]
W1: [V1,X1]
X: [W,Y]
X1: [W1,Y1]
Y: [X,Z]
Y1: [X1,Z1]
Z: [A1,Y]
Z1: [Y1]
Total time taken for discovery for machine
M1: 1.379s
There are 52 machines in this topology. The following are the machines and their neighbors discovered from machine O1:
A: [B]
A1: [B1,Z]
B: [A,C]
B1: [A1,C1]
C: [B,D]
C1: [B1,D1]
D: [C,E]
D1: [C1,E1]
E: [D,F]
E1: [D1,F1]
F: [E,G]
F1: [E1,G1]
G: [F,H]
G1: [F1,H1]
H: [G,I]
H1: [G1,I1]
I: [H,J]
I1: [H1,J1]
J: [I,K]
J1: [I1,K1]
K: [J,L]
K1: [J1,L1]
L: [K,M]
L1: [K1,M1]
M: [L,N]
M1: [L1,N1]
N: [M,O]
N1: [M1,O1]
O: [N,P]
O1: [N1,P1]
P: [O,Q]
P1: [O1,Q1]
Q: [P,R]
Q1: [P1,R1]
R: [Q,S]
R1: [Q1,S1]
S: [R,T]
S1: [R1,T1]
T: [S,U]
T1: [S1,U1]
U: [T,V]
U1: [T1,V1]
V: [U,W]
V1: [U1,W1]
W: [V,X]
W1: [V1,X1]
X: [W,Y]
X1: [W1,Y1]
Y: [X,Z]
Y1: [X1,Z1]
Z: [A1,Y]
Z1: [Y1]
Total time taken for discovery for machine
O1: 1.408s
There are 52 machines in this topology. The following are the machines and their neighbors discovered from machine L1:
A: [B]
A1: [B1,Z]
B: [A,C]
B1: [A1,C1]
C: [B,D]
C1: [B1,D1]
D: [C,E]
D1: [C1,E1]
E: [D,F]
E1: [D1,F1]
F: [E,G]
F1: [E1,G1]
G: [F,H]
G1: [F1,H1]
H: [G,I]
H1: [G1,I1]
I: [H,J]
I1: [H1,J1]
J: [I,K]
J1: [I1,K1]
K: [J,L]
K1: [J1,L1]
L: [K,M]
L1: [K1,M1]
M: [L,N]
M1: [L1,N1]
N: [M,O]
N1: [M1,O1]
O: [N,P]
O1: [N1,P1]
P: [O,Q]
P1: [O1,Q1]
Q: [P,R]
Q1: [P1,R1]
R: [Q,S]
R1: [Q1,S1]
S: [R,T]
S1: [R1,T1]
T: [S,U]
T1: [S1,U1]
U: [T,V]
U1: [T1,V1]
V: [U,W]
V1: [U1,W1]
W: [V,X]
W1: [V1,X1]
X: [W,Y]
X1: [W1,Y1]
Y: [X,Z]
Y1: [X1,Z1]
Z: [A1,Y]
Z1: [Y1]
Total time taken for discovery for machine
L1: 1.433s
There are 52 machines in this topology. The following are the machines and their neighbors discovered from machine R1:
A: [B]
A1: [B1,Z]
B: [A,C]
B1: [A1,C1]
C: [B,D]
C1: [B1,D1]
D: [C,E]
D1: [C1,E1]
E: [D,F]
E1: [D1,F1]
F: [E,G]
F1: [E1,G1]
G: [F,H]
G1: [F1,H1]
H: [G,I]
H1: [G1,I1]
I: [H,J]
I1: [H1,J1]
J: [I,K]
J1: [I1,K1]
K: [J,L]
K1: [J1,L1]
L: [K,M]
L1: [K1,M1]
M: [L,N]
M1: [L1,N1]
N: [M,O]
N1: [M1,O1]
O: [N,P]
O1: [N1,P1]
P: [O,Q]
P1: [O1,Q1]
Q: [P,R]
Q1: [P1,R1]
R: [Q,S]
R1: [Q1,S1]
S: [R,T]
S1: [R1,T1]
T: [S,U]
T1: [S1,U1]
U: [T,V]
U1: [T1,V1]
V: [U,W]
V1: [U1,W1]
W: [V,X]
W1: [V1,X1]
X: [W,Y]
X1: [W1,Y1]
Y: [X,Z]
Y1: [X1,Z1]
Z: [A1,Y]
Z1: [Y1]
Total time taken for discovery for machine
R1: 1.449s
There are 52 machines in this topology. The following are the machines and their neighbors discovered from machine Q1:
A: [B]
A1: [B1,Z]
B: [A,C]
B1: [A1,C1]
C: [B,D]
C1: [B1,D1]
D: [C,E]
D1: [C1,E1]
E: [D,F]
E1: [D1,F1]
F: [E,G]
F1: [E1,G1]
G: [F,H]
G1: [F1,H1]
H: [G,I]
H1: [G1,I1]
I: [H,J]
I1: [H1,J1]
J: [I,K]
J1: [I1,K1]
K: [J,L]
K1: [J1,L1]
L: [K,M]
L1: [K1,M1]
M: [L,N]
M1: [L1,N1]
N: [M,O]
N1: [M1,O1]
O: [N,P]
O1: [N1,P1]
P: [O,Q]
P1: [O1,Q1]
Q: [P,R]
Q1: [P1,R1]
R: [Q,S]
R1: [Q1,S1]
S: [R,T]
S1: [R1,T1]
T: [S,U]
T1: [S1,U1]
U: [T,V]
U1: [T1,V1]
V: [U,W]
V1: [U1,W1]
W: [V,X]
W1: [V1,X1]
X: [W,Y]
X1: [W1,Y1]
Y: [X,Z]
Y1: [X1,Z1]
Z: [A1,Y]
Z1: [Y1]
Total time taken for discovery for machine
Q1: 1.479s
There are 52 machines in this topology. The following are the machines and their neighbors discovered from machine N1:
A: [B]
A1: [B1,Z]
B: [A,C]
B1: [A1,C1]
C: [B,D]
C1: [B1,D1]
D: [C,E]
D1: [C1,E1]
E: [D,F]
E1: [D1,F1]
F: [E,G]
F1: [E1,G1]
G: [F,H]
G1: [F1,H1]
H: [G,I]
H1: [G1,I1]
I: [H,J]
I1: [H1,J1]
J: [I,K]
J1: [I1,K1]
K: [J,L]
K1: [J1,L1]
L: [K,M]
L1: [K1,M1]
M: [L,N]
M1: [L1,N1]
N: [M,O]
N1: [M1,O1]
O: [N,P]
O1: [N1,P1]
P: [O,Q]
P1: [O1,Q1]
Q: [P,R]
Q1: [P1,R1]
R: [Q,S]
R1: [Q1,S1]
S: [R,T]
S1: [R1,T1]
T: [S,U]
T1: [S1,U1]
U: [T,V]
U1: [T1,V1]
V: [U,W]
V1: [U1,W1]
W: [V,X]
W1: [V1,X1]
X: [W,Y]
X1: [W1,Y1]
Y: [X,Z]
Y1: [X1,Z1]
Z: [A1,Y]
Z1: [Y1]
Total time taken for discovery for machine
N1: 1.491s
There are 52 machines in this topology. The following are the machines and their neighbors discovered from machine K1:
A: [B]
A1: [B1,Z]
B: [A,C]
B1: [A1,C1]
C: [B,D]
C1: [B1,D1]
D: [C,E]
D1: [C1,E1]
E: [D,F]
E1: [D1,F1]
F: [E,G]
F1: [E1,G1]
G: [F,H]
G1: [F1,H1]
H: [G,I]
H1: [G1,I1]
I: [H,J]
I1: [H1,J1]
J: [I,K]
J1: [I1,K1]
K: [J,L]
K1: [J1,L1]
L: [K,M]
L1: [K1,M1]
M: [L,N]
M1: [L1,N1]
N: [M,O]
N1: [M1,O1]
O: [N,P]
O1: [N1,P1]
P: [O,Q]
P1: [O1,Q1]
Q: [P,R]
Q1: [P1,R1]
R: [Q,S]
R1: [Q1,S1]
S: [R,T]
S1: [R1,T1]
T: [S,U]
T1: [S1,U1]
U: [T,V]
U1: [T1,V1]
V: [U,W]
V1: [U1,W1]
W: [V,X]
W1: [V1,X1]
X: [W,Y]
X1: [W1,Y1]
Y: [X,Z]
Y1: [X1,Z1]
Z: [A1,Y]
Z1: [Y1]
Total time taken for discovery for machine
K1: 1.516s
There are 52 machines in this topology. The following are the machines and their neighbors discovered from machine H1:
A: [B]
A1: [B1,Z]
B: [A,C]
B1: [A1,C1]
C: [B,D]
C1: [B1,D1]
D: [C,E]
D1: [C1,E1]
E: [D,F]
E1: [D1,F1]
F: [E,G]
F1: [E1,G1]
G: [F,H]
G1: [F1,H1]
H: [G,I]
H1: [G1,I1]
I: [H,J]
I1: [H1,J1]
J: [I,K]
J1: [I1,K1]
K: [J,L]
K1: [J1,L1]
L: [K,M]
L1: [K1,M1]
M: [L,N]
M1: [L1,N1]
N: [M,O]
N1: [M1,O1]
O: [N,P]
O1: [N1,P1]
P: [O,Q]
P1: [O1,Q1]
Q: [P,R]
Q1: [P1,R1]
R: [Q,S]
R1: [Q1,S1]
S: [R,T]
S1: [R1,T1]
T: [S,U]
T1: [S1,U1]
U: [T,V]
U1: [T1,V1]
V: [U,W]
V1: [U1,W1]
W: [V,X]
W1: [V1,X1]
X: [W,Y]
X1: [W1,Y1]
Y: [X,Z]
Y1: [X1,Z1]
Z: [A1,Y]
Z1: [Y1]
Total time taken for discovery for machine
H1: 1.530s
There are 52 machines in this topology. The following are the machines and their neighbors discovered from machine S1:
A: [B]
A1: [B1,Z]
B: [A,C]
B1: [A1,C1]
C: [B,D]
C1: [B1,D1]
D: [C,E]
D1: [C1,E1]
E: [D,F]
E1: [D1,F1]
F: [E,G]
F1: [E1,G1]
G: [F,H]
G1: [F1,H1]
H: [G,I]
H1: [G1,I1]
I: [H,J]
I1: [H1,J1]
J: [I,K]
J1: [I1,K1]
K: [J,L]
K1: [J1,L1]
L: [K,M]
L1: [K1,M1]
M: [L,N]
M1: [L1,N1]
N: [M,O]
N1: [M1,O1]
O: [N,P]
O1: [N1,P1]
P: [O,Q]
P1: [O1,Q1]
Q: [P,R]
Q1: [P1,R1]
R: [Q,S]
R1: [Q1,S1]
S: [R,T]
S1: [R1,T1]
T: [S,U]
T1: [S1,U1]
U: [T,V]
U1: [T1,V1]
V: [U,W]
V1: [U1,W1]
W: [V,X]
W1: [V1,X1]
X: [W,Y]
X1: [W1,Y1]
Y: [X,Z]
Y1: [X1,Z1]
Z: [A1,Y]
Z1: [Y1]
Total time taken for discovery for machine
S1: 1.546s
There are 52 machines in this topology. The following are the machines and their neighbors discovered from machine P1:
A: [B]
A1: [B1,Z]
B: [A,C]
B1: [A1,C1]
C: [B,D]
C1: [B1,D1]
D: [C,E]
D1: [C1,E1]
E: [D,F]
E1: [D1,F1]
F: [E,G]
F1: [E1,G1]
G: [F,H]
G1: [F1,H1]
H: [G,I]
H1: [G1,I1]
I: [H,J]
I1: [H1,J1]
J: [I,K]
J1: [I1,K1]
K: [J,L]
K1: [J1,L1]
L: [K,M]
L1: [K1,M1]
M: [L,N]
M1: [L1,N1]
N: [M,O]
N1: [M1,O1]
O: [N,P]
O1: [N1,P1]
P: [O,Q]
P1: [O1,Q1]
Q: [P,R]
Q1: [P1,R1]
R: [Q,S]
R1: [Q1,S1]
S: [R,T]
S1: [R1,T1]
T: [S,U]
T1: [S1,U1]
U: [T,V]
U1: [T1,V1]
V: [U,W]
V1: [U1,W1]
W: [V,X]
W1: [V1,X1]
X: [W,Y]
X1: [W1,Y1]
Y: [X,Z]
Y1: [X1,Z1]
Z: [A1,Y]
Z1: [Y1]
Total time taken for discovery for machine
P1: 1.571s
There are 52 machines in this topology. The following are the machines and their neighbors discovered from machine T1:
A: [B]
A1: [B1,Z]
B: [A,C]
B1: [A1,C1]
C: [B,D]
C1: [B1,D1]
D: [C,E]
D1: [C1,E1]
E: [D,F]
E1: [D1,F1]
F: [E,G]
F1: [E1,G1]
G: [F,H]
G1: [F1,H1]
H: [G,I]
H1: [G1,I1]
I: [H,J]
I1: [H1,J1]
J: [I,K]
J1: [I1,K1]
K: [J,L]
K1: [J1,L1]
L: [K,M]
L1: [K1,M1]
M: [L,N]
M1: [L1,N1]
N: [M,O]
N1: [M1,O1]
O: [N,P]
O1: [N1,P1]
P: [O,Q]
P1: [O1,Q1]
Q: [P,R]
Q1: [P1,R1]
R: [Q,S]
R1: [Q1,S1]
S: [R,T]
S1: [R1,T1]
T: [S,U]
T1: [S1,U1]
U: [T,V]
U1: [T1,V1]
V: [U,W]
V1: [U1,W1]
W: [V,X]
W1: [V1,X1]
X: [W,Y]
X1: [W1,Y1]
Y: [X,Z]
Y1: [X1,Z1]
Z: [A1,Y]
Z1: [Y1]
Total time taken for discovery for machine
T1: 1.589s
There are 52 machines in this topology. The following are the machines and their neighbors discovered from machine X1:
A: [B]
A1: [B1,Z]
B: [A,C]
B1: [A1,C1]
C: [B,D]
C1: [B1,D1]
D: [C,E]
D1: [C1,E1]
E: [D,F]
E1: [D1,F1]
F: [E,G]
F1: [E1,G1]
G: [F,H]
G1: [F1,H1]
H: [G,I]
H1: [G1,I1]
I: [H,J]
I1: [H1,J1]
J: [I,K]
J1: [I1,K1]
K: [J,L]
K1: [J1,L1]
L: [K,M]
L1: [K1,M1]
M: [L,N]
M1: [L1,N1]
N: [M,O]
N1: [M1,O1]
O: [N,P]
O1: [N1,P1]
P: [O,Q]
P1: [O1,Q1]
Q: [P,R]
Q1: [P1,R1]
R: [Q,S]
R1: [Q1,S1]
S: [R,T]
S1: [R1,T1]
T: [S,U]
T1: [S1,U1]
U: [T,V]
U1: [T1,V1]
V: [U,W]
V1: [U1,W1]
W: [V,X]
W1: [V1,X1]
X: [W,Y]
X1: [W1,Y1]
Y: [X,Z]
Y1: [X1,Z1]
Z: [A1,Y]
Z1: [Y1]
Total time taken for discovery for machine
X1: 442.882ms
There are 52 machines in this topology. The following are the machines and their neighbors discovered from machine W1:
A: [B]
A1: [B1,Z]
B: [A,C]
B1: [A1,C1]
C: [B,D]
C1: [B1,D1]
D: [C,E]
D1: [C1,E1]
E: [D,F]
E1: [D1,F1]
F: [E,G]
F1: [E1,G1]
G: [F,H]
G1: [F1,H1]
H: [G,I]
H1: [G1,I1]
I: [H,J]
I1: [H1,J1]
J: [I,K]
J1: [I1,K1]
K: [J,L]
K1: [J1,L1]
L: [K,M]
L1: [K1,M1]
M: [L,N]
M1: [L1,N1]
N: [M,O]
N1: [M1,O1]
O: [N,P]
O1: [N1,P1]
P: [O,Q]
P1: [O1,Q1]
Q: [P,R]
Q1: [P1,R1]
R: [Q,S]
R1: [Q1,S1]
S: [R,T]
S1: [R1,T1]
T: [S,U]
T1: [S1,U1]
U: [T,V]
U1: [T1,V1]
V: [U,W]
V1: [U1,W1]
W: [V,X]
W1: [V1,X1]
X: [W,Y]
X1: [W1,Y1]
Y: [X,Z]
Y1: [X1,Z1]
Z: [A1,Y]
Z1: [Y1]
Total time taken for discovery for machine
W1: 474.007ms
There are 52 machines in this topology. The following are the machines and their neighbors discovered from machine Y1:
A: [B]
A1: [B1,Z]
B: [A,C]
B1: [A1,C1]
C: [B,D]
C1: [B1,D1]
D: [C,E]
D1: [C1,E1]
E: [D,F]
E1: [D1,F1]
F: [E,G]
F1: [E1,G1]
G: [F,H]
G1: [F1,H1]
H: [G,I]
H1: [G1,I1]
I: [H,J]
I1: [H1,J1]
J: [I,K]
J1: [I1,K1]
K: [J,L]
K1: [J1,L1]
L: [K,M]
L1: [K1,M1]
M: [L,N]
M1: [L1,N1]
N: [M,O]
N1: [M1,O1]
O: [N,P]
O1: [N1,P1]
P: [O,Q]
P1: [O1,Q1]
Q: [P,R]
Q1: [P1,R1]
R: [Q,S]
R1: [Q1,S1]
S: [R,T]
S1: [R1,T1]
T: [S,U]
T1: [S1,U1]
U: [T,V]
U1: [T1,V1]
V: [U,W]
V1: [U1,W1]
W: [V,X]
W1: [V1,X1]
X: [W,Y]
X1: [W1,Y1]
Y: [X,Z]
Y1: [X1,Z1]
Z: [A1,Y]
Z1: [Y1]
Total time taken for discovery for machine
Y1: 509.566ms
There are 52 machines in this topology. The following are the machines and their neighbors discovered from machine V1:
A: [B]
A1: [B1,Z]
B: [A,C]
B1: [A1,C1]
C: [B,D]
C1: [B1,D1]
D: [C,E]
D1: [C1,E1]
E: [D,F]
E1: [D1,F1]
F: [E,G]
F1: [E1,G1]
G: [F,H]
G1: [F1,H1]
H: [G,I]
H1: [G1,I1]
I: [H,J]
I1: [H1,J1]
J: [I,K]
J1: [I1,K1]
K: [J,L]
K1: [J1,L1]
L: [K,M]
L1: [K1,M1]
M: [L,N]
M1: [L1,N1]
N: [M,O]
N1: [M1,O1]
O: [N,P]
O1: [N1,P1]
P: [O,Q]
P1: [O1,Q1]
Q: [P,R]
Q1: [P1,R1]
R: [Q,S]
R1: [Q1,S1]
S: [R,T]
S1: [R1,T1]
T: [S,U]
T1: [S1,U1]
U: [T,V]
U1: [T1,V1]
V: [U,W]
V1: [U1,W1]
W: [V,X]
W1: [V1,X1]
X: [W,Y]
X1: [W1,Y1]
Y: [X,Z]
Y1: [X1,Z1]
Z: [A1,Y]
Z1: [Y1]
Total time taken for discovery for machine
V1: 537.705ms
There are 52 machines in this topology. The following are the machines and their neighbors discovered from machine Z1:
A: [B]
A1: [B1,Z]
B: [A,C]
B1: [A1,C1]
C: [B,D]
C1: [B1,D1]
D: [C,E]
D1: [C1,E1]
E: [D,F]
E1: [D1,F1]
F: [E,G]
F1: [E1,G1]
G: [F,H]
G1: [F1,H1]
H: [G,I]
H1: [G1,I1]
I: [H,J]
I1: [H1,J1]
J: [I,K]
J1: [I1,K1]
K: [J,L]
K1: [J1,L1]
L: [K,M]
L1: [K1,M1]
M: [L,N]
M1: [L1,N1]
N: [M,O]
N1: [M1,O1]
O: [N,P]
O1: [N1,P1]
P: [O,Q]
P1: [O1,Q1]
Q: [P,R]
Q1: [P1,R1]
R: [Q,S]
R1: [Q1,S1]
S: [R,T]
S1: [R1,T1]
T: [S,U]
T1: [S1,U1]
U: [T,V]
U1: [T1,V1]
V: [U,W]
V1: [U1,W1]
W: [V,X]
W1: [V1,X1]
X: [W,Y]
X1: [W1,Y1]
Y: [X,Z]
Y1: [X1,Z1]
Z: [A1,Y]
Z1: [Y1]
Total time taken for discovery for machine
Z1: 545.28ms